!!!!SEGMENT: pl-kk--kk-i-395--001-004_raszek-waclaw--missa-toni-c-qui-tollis.krn
!!!cenid: 17xx:2540
!!!COM: Raszek, Wacław
!!!COM-rismID: pe30020314
!!!CDT: <1848->1848
!!!CNT:
!!!OPR: Missa Toni C
!!!OTL: Qui tollis
!!!OMV: 004
!!!PDT: 1789
!!!AGN: Sacred; Mass
!!!YEC: Copyright 2022 Narodowy Instytut Fryderyka Chopina (https://polishscores.org)
!!!YEM: License CC-BY-4.0 (https://creativecommons.org/licenses/by/4.0)
!!!SMS-siglum: PL-Kk
!!!SMS-shelfmark: Kk.I.395
!!!SMS-variant: Violino 1mo. PL-Kk Kk.I.395:25; Violino 2do PL-Kk Kk.I.395:43
!!!SMS-altvar: Violino Primo PL-Kk Kk.I.395:34; Violino Secondo. PL-Kk Kk.I.395:50-51
!!!SMS-shelfwork: 001-004 M
!!!NIFC-rismSourceID: 1001142055
!!!NIFC-rismChildID: 1001142055
!!!NIFC-islandoraID:
!!!URL-pdf-islandora: https://repozytorium.nifc.pl/islandora/object/pl-kk%3A7416/datastream/PDF/view
!!!URL-scan: https://polish.musicsources.pl/pl/lokalizacje/galeria/rekopisy/6005-missa/1 @EN{Scan on Polish Music Sources Website} @PL{Skany w portalu Dziedzictwo Muzyki Polskiej w otwartym dostępie}
!!!IIIF:
!!!ONB-nifc: UWAGA: Części Mszy: 1. Kyrie, 2. Gloria, 3. Laudamus, 4. Qui tollis, 5. Quoniam, 6. Cum Sancto Spiritu, 7, Credo, 8. Et incarnatus, 9. Et resurrexit, 10. Sanctus, 11. Pleni sunt, 12. Benedictus, 13. Agnus Dei, 14. Dona nobis. Uwaga: Vn na podstawie Violino 1mo s. 22-30 i Violino 2do s. 41-47. Drugie odpisy: Violino Primo s. 31-40 s. i Secondo s. 48-55. Proszę uzupełnić pola SMS wg wzoru w wątku #53.
!!!AIN: 1 alto 1 bass 2 clrno 2 cor 2 oboe 1 organ 1 soprn 1 tenor 1 timpa 2 viole 2 violn
!!!key: c
**kern	**fba	**dynam	**kern	**dynam	**kern	**dynam	**kern	**dynam	**kern	**dynam	**kern	**text	**dynam	**kern	**text	**dynam	**kern	**text	**dynam	**kern	**text	**dynam	**kern	**kern	**kern	**kern	**dynam	**kern	**dynam	**kern	**dynam	**kern	**dynam
*part16	*	*part16	*part15	*part15	*part14	*part14	*part13	*part13	*part12	*part12	*part11	*part11	*part11	*part10	*part10	*part10	*part9	*part9	*part9	*part8	*part8	*part8	*part7	*part6	*part5	*part4	*part4	*part3	*part3	*part2	*part2	*part1	*part1
*staff16	*	*	*staff15	*	*staff14	*	*staff13	*	*staff12	*	*staff11	*staff11	*	*staff10	*staff10	*	*staff9	*staff9	*	*staff8	*staff8	*	*staff7	*staff6	*staff5	*staff4	*	*staff3	*	*staff2	*	*staff1	*
*group6	*	*	*group5	*	*group5	*	*group5	*	*group5	*	*group4	*	*	*group4	*	*	*group4	*	*	*group4	*	*	*group3	*group2	*group2	*group2	*	*group2	*	*group1	*	*group1	*
*ICklav	*	*	*ICstr	*	*ICstr	*	*ICstr	*	*ICstr	*	*ICvox	*	*	*ICvox	*	*	*ICvox	*	*	*ICvox	*	*	*ICidio	*ICbras	*ICbras	*ICbras	*	*ICbras	*	*ICww	*	*ICww	*
*Iorgan	*	*	*Iviole	*	*Iviole	*	*Ivioln	*	*Ivioln	*	*Ibass	*	*	*Itenor	*	*	*Ialto	*	*	*Isoprn	*	*	*Itimpa	*Iclrno	*Iclrno	*Icor	*	*Icor	*	*Ioboe	*	*Ioboe	*
*I"Organo	*	*	*I"Violone	*	*I"Viola di Alto	*	*I"Violino 2do	*	*I"Violino 1mo.	*	*I"Baſso	*	*	*I"Tenore	*	*	*I"Alto.	*	*	*I"Canto	*	*	*I"Tympano in C.	*I"Clarino 2do in C.	*I"Clarino 1mo in C	*I"Cornu 2do in C	*	*I"Cornu 1mo. in C.	*	*I"Oboe 2do	*	*I"Oboe 1mo	*
*I'org	*	*	*I'vlne	*	*I'a-vla	*	*I'vl 2	*	*I'vl 1	*	*I'B	*	*	*I'T	*	*	*I'A	*	*	*I'S	*I'timp	*I'clno 2 in C	*	*I'clno 1 in C	*	*I'cor 2 in C	*	*I'cor 1 in C	*	*I'ob 2	*	*I'ob 1	*
*clefF4	*	*	*clefF4	*	*clefC3	*	*clefG2	*	*clefG2	*	*clefF4	*	*	*clefC4	*	*	*clefC3	*	*	*clefC1	*	*	*clefF4	*clefG2	*clefG2	*clefG2	*	*clefG2	*	*clefG2	*	*clefG2	*
*	*	*	*	*	*	*	*	*	*	*	*	*	*	*	*	*	*	*	*	*	*	*	*	*	*	*ITrd5c9	*	*ITrd5c9	*	*	*	*	*
*k[b-e-a-]	*	*	*k[b-e-a-]	*	*k[b-e-a-]	*	*k[b-e-a-]	*	*k[b-e-a-]	*	*k[b-e-a-]	*	*	*k[b-e-a-]	*	*	*k[b-e-a-]	*	*	*k[b-e-a-]	*	*	*k[]	*k[b-e-a-]	*k[b-e-a-]	*k[b-e-a-]	*	*k[b-e-a-]	*	*k[b-e-a-]	*	*k[b-e-a-]	*
*c:	*	*	*c:	*	*c:	*	*c:	*	*c:	*	*c:	*	*	*c:	*	*	*c:	*	*	*c:	*	*	*a:	*c:	*c:	*c:	*	*c:	*	*c:	*	*c:	*
*M3/4	*	*	*M3/4	*	*M3/4	*	*M3/4	*	*M3/4	*	*M3/4	*	*	*M3/4	*	*	*M3/4	*	*	*M3/4	*	*	*M3/4	*M3/4	*M3/4	*M3/4	*	*M3/4	*	*M3/4	*	*M3/4	*
*all\right	*	*	*all\right	*	*all\right	*	*all\right	*	*all\right	*	*all\right	*	*	*all\right	*	*	*all\right	*	*	*all\right	*	*	*	*	*	*all\right	*	*all\right	*	*all\right	*	*all\right	*
!!LO:TX:t=P:problem:all\right
!LO:TX:t=P:problem:znaki [BB- E- A-]	!	!	!LO:TX:t=P:problem:znaki [BB- E- A-]	!	!LO:TX:t=P:problem:znaki [e- A- B-]	!	!	!	!	!	!LO:TX:t=P:problem:znaki [BB- E- A-]	!	!	!	!	!	!	!	!	!	!	!	!	!	!	!LO:TX:a:t=Cornu[[a]] in Dis	!	!LO:TX:a:t=Cornu in Dis	!	!	!	!	!
!LO:TX:a:t=Adagio Solo	!	!	!LO:TX:a:t=Adagio Solo	!	!LO:TX:a:t=Adao&colon;	!LO:DY:a:rj:t=p.	!LO:TX:a:t=Ada&colon;	!LO:DY:a:t=p.	!LO:TX:a:t=Adagio	!LO:DY:a:t=p&colon;	!LO:TX:a:t=Adag.	!	!	!LO:TX:a:t=Ada&colon;	!	!	!LO:TX:a:t=Ada&colon;	!	!	!LO:TX:a:t=Adagio.	!	!	!LO:TX:a:t=Tacent	!LO:TX:a:t=tacet.	!LO:TX:a:t=Tacet	!LO:TX:a:t=Ada&colon;	!	!LO:TX:a:t=Ada&colon;	!	!LO:TX:a:t=Ada&colon;	!	!LO:TX:a:t=Adagio	!
!LO:N:vis=4	!	!	!LO:N:vis=4	!	!	!	!	!	!	!	!	!	!	!	!	!	!	!	!	!	!	!	!	!	!	!	!	!	!	!	!	!	!
8r	.	.	8r	.	8r	p	8r	p	8cc\	p	8r	.	.	8r	.	.	8r	.	.	8r	.	.	8ryy	8ryy	8ryy	8ryy	.	8ryy	.	8r	.	8r	.
=1	=1	=1	=1	=1	=1	=1	=1	=1	=1	=1	=1	=1	=1	=1	=1	=1	=1	=1	=1	=1	=1	=1	=1	=1	=1	=1	=1	=1	=1	=1	=1	=1	=1
!LO:N:vis=00	!	!	!LO:N:vis=00	!	!	!	!	!	!	!	!LO:N:vis=00	!	!	!LO:N:vis=00	!	!	!LO:N:vis=00	!	!	!LO:N:vis=00	!	!	!	!	!	!LO:N:vis=00	!	!LO:N:vis=00	!	!LO:N:vis=00	!	!LO:N:vis=00	!
0.r	.	.	0.r	.	4c\	.	8.c/L	.	8.cc\L	.	0.r	.	.	0.r	.	.	0.r	.	.	0.r	.	.	2.ryy	2.ryy	2.ryy	0.r	.	0.r	.	0.r	.	0.r	.
.	.	.	.	.	.	.	16Bn/Jk	.	16dd\Jk	.	.	.	.	.	.	.	.	.	.	.	.	.	.	.	.	.	.	.	.	.	.	.	.
.	.	.	.	.	4C/	.	8c/L	.	8ee-\	.	.	.	.	.	.	.	.	.	.	.	.	.	.	.	.	.	.	.	.	.	.	.	.
.	.	.	.	.	.	.	8c/	.	8ee-\	.	.	.	.	.	.	.	.	.	.	.	.	.	.	.	.	.	.	.	.	.	.	.	.
.	.	.	.	.	4r	.	8c/	.	8ee-\	.	.	.	.	.	.	.	.	.	.	.	.	.	.	.	.	.	.	.	.	.	.	.	.
.	.	.	.	.	.	.	8c/J	.	8ee-\J	.	.	.	.	.	.	.	.	.	.	.	.	.	.	.	.	.	.	.	.	.	.	.	.
=2	=2	=2	=2	=2	=2	=2	=2	=2	=2	=2	=2	=2	=2	=2	=2	=2	=2	=2	=2	=2	=2	=2	=2	=2	=2	=2	=2	=2	=2	=2	=2	=2	=2
.	.	.	.	.	4c\	.	8.c/L	.	8.ee-\L	.	.	.	.	.	.	.	.	.	.	.	.	.	2.ryy	2.ryy	2.ryy	.	.	.	.	.	.	.	.
.	.	.	.	.	.	.	16d/Jk	.	16ff\Jk	.	.	.	.	.	.	.	.	.	.	.	.	.	.	.	.	.	.	.	.	.	.	.	.
.	.	.	.	.	4C/	.	4e-/	.	16gg\LL	.	.	.	.	.	.	.	.	.	.	.	.	.	.	.	.	.	.	.	.	.	.	.	.
.	.	.	.	.	.	.	.	.	16ff#X\	.	.	.	.	.	.	.	.	.	.	.	.	.	.	.	.	.	.	.	.	.	.	.	.
.	.	.	.	.	.	.	.	.	16aa-\	.	.	.	.	.	.	.	.	.	.	.	.	.	.	.	.	.	.	.	.	.	.	.	.
.	.	.	.	.	.	.	.	.	16gg\JJ	.	.	.	.	.	.	.	.	.	.	.	.	.	.	.	.	.	.	.	.	.	.	.	.
.	.	.	.	.	4r	.	4r	.	16ffn\LL	.	.	.	.	.	.	.	.	.	.	.	.	.	.	.	.	.	.	.	.	.	.	.	.
.	.	.	.	.	.	.	.	.	16ee-\	.	.	.	.	.	.	.	.	.	.	.	.	.	.	.	.	.	.	.	.	.	.	.	.
.	.	.	.	.	.	.	.	.	16dd\	.	.	.	.	.	.	.	.	.	.	.	.	.	.	.	.	.	.	.	.	.	.	.	.
.	.	.	.	.	.	.	.	.	16cc\JJ	.	.	.	.	.	.	.	.	.	.	.	.	.	.	.	.	.	.	.	.	.	.	.	.
=3	=3	=3	=3	=3	=3	=3	=3	=3	=3	=3	=3	=3	=3	=3	=3	=3	=3	=3	=3	=3	=3	=3	=3	=3	=3	=3	=3	=3	=3	=3	=3	=3	=3
*	*	*	*	*	*2\right	*	*tremolo	*	*2\right	*	*	*	*	*	*	*	*	*	*	*	*	*	*	*	*	*	*	*	*	*	*	*	*
*	*	*	*	*	*tremolo	*	*	*	*	*	*	*	*	*	*	*	*	*	*	*	*	*	*	*	*	*	*	*	*	*	*	*	*
.	.	.	.	.	8c\L	.	8e-/L	.	2aa-\	.	.	.	.	.	.	.	.	.	.	.	.	.	2.ryy	2.ryy	2.ryy	.	.	.	.	.	.	.	.
.	.	.	.	.	8c\	.	8e-/	.	.	.	.	.	.	.	.	.	.	.	.	.	.	.	.	.	.	.	.	.	.	.	.	.	.
.	.	.	.	.	8c\	.	8e-/	.	.	.	.	.	.	.	.	.	.	.	.	.	.	.	.	.	.	.	.	.	.	.	.	.	.
.	.	.	.	.	8c\	.	8e-/	.	.	.	.	.	.	.	.	.	.	.	.	.	.	.	.	.	.	.	.	.	.	.	.	.	.
.	.	.	.	.	8c\	.	8e-/	.	4gg\	.	.	.	.	.	.	.	.	.	.	.	.	.	.	.	.	.	.	.	.	.	.	.	.
.	.	.	.	.	8c\J	.	8e-/J	.	.	.	.	.	.	.	.	.	.	.	.	.	.	.	.	.	.	.	.	.	.	.	.	.	.
*	*	*	*	*	*Xtremolo	*	*Xtremolo	*	*	*	*	*	*	*	*	*	*	*	*	*	*	*	*	*	*	*	*	*	*	*	*	*	*
=4	=4	=4	=4	=4	=4	=4	=4	=4	=4	=4	=4	=4	=4	=4	=4	=4	=4	=4	=4	=4	=4	=4	=4	=4	=4	=4	=4	=4	=4	=4	=4	=4	=4
.	.	.	.	.	4c\	.	4e-/	.	8.ff#Xt\L	.	.	.	.	.	.	.	.	.	.	.	.	.	2.ryy	2.ryy	2.ryy	.	.	.	.	.	.	.	.
!	!	!	!	!	!	!	!	!	!LO:SIC:v:s=32een\LL	!	!	!	!	!	!	!	!	!	!	!	!	!	!	!	!	!	!	!	!	!	!	!	!
.	.	.	.	.	.	.	.	.	32ee-\LL	.	.	.	.	.	.	.	.	.	.	.	.	.	.	.	.	.	.	.	.	.	.	.	.
.	.	.	.	.	.	.	.	.	32ff#\JJJ	.	.	.	.	.	.	.	.	.	.	.	.	.	.	.	.	.	.	.	.	.	.	.	.
.	.	.	.	.	4Bn\	.	4d/	.	16gg\LL	.	.	.	.	.	.	.	.	.	.	.	.	.	.	.	.	.	.	.	.	.	.	.	.
.	.	.	.	.	.	.	.	.	16dd\	.	.	.	.	.	.	.	.	.	.	.	.	.	.	.	.	.	.	.	.	.	.	.	.
.	.	.	.	.	.	.	.	.	16bn\	.	.	.	.	.	.	.	.	.	.	.	.	.	.	.	.	.	.	.	.	.	.	.	.
.	.	.	.	.	.	.	.	.	16g\JJ	.	.	.	.	.	.	.	.	.	.	.	.	.	.	.	.	.	.	.	.	.	.	.	.
.	.	.	.	.	4r	.	4r	.	16d/LL	.	.	.	.	.	.	.	.	.	.	.	.	.	.	.	.	.	.	.	.	.	.	.	.
.	.	.	.	.	.	.	.	.	16g/	.	.	.	.	.	.	.	.	.	.	.	.	.	.	.	.	.	.	.	.	.	.	.	.
.	.	.	.	.	.	.	.	.	16d/	.	.	.	.	.	.	.	.	.	.	.	.	.	.	.	.	.	.	.	.	.	.	.	.
.	.	.	.	.	.	.	.	.	16Bn/JJ	.	.	.	.	.	.	.	.	.	.	.	.	.	.	.	.	.	.	.	.	.	.	.	.
=5	=5	=5	=5	=5	=5	=5	=5	=5	=5	=5	=5	=5	=5	=5	=5	=5	=5	=5	=5	=5	=5	=5	=5	=5	=5	=5	=5	=5	=5	=5	=5	=5	=5
*	*	*	*	*	*	*	*	*	*	*	*	*	*	*	*	*	*	*	*	*	*	*	*	*	*	*	*	*	*	*2\right	*	*2\right	*
!	!	!LO:DY:a:rj:t=pp.	!	!LO:DY:a:t=p.	!	!	!	!	!	!	!LO:N:vis=00	!	!	!LO:N:vis=00	!	!	!LO:N:vis=00	!	!	!LO:N:vis=00	!	!	!	!	!	!	!	!	!LO:DY:a:t=p.	!	!LO:DY:a:t=pp.	!	!LO:DY:a:t=pp.
8BBn/	6_	pp	8BBn/	p	8Bn/	.	8d/	.	16G'/LL	.	0.r	.	.	0.r	.	.	0.r	.	.	0.r	.	.	2.ryy	2.ryy	2.ryy	2.G/	.	2.G/	p	2.dd\	pp	2.ff\	pp
.	.	.	.	.	.	.	.	.	16G'/	.	.	.	.	.	.	.	.	.	.	.	.	.	.	.	.	.	.	.	.	.	.	.	.
8r	.	.	8r	.	8r	.	8r	.	(16A-/	.	.	.	.	.	.	.	.	.	.	.	.	.	.	.	.	.	.	.	.	.	.	.	.
.	.	.	.	.	.	.	.	.	16G/JJ)	.	.	.	.	.	.	.	.	.	.	.	.	.	.	.	.	.	.	.	.	.	.	.	.
*	*	*	*	*	*	*	*	*	*custos:f	*	*	*	*	*	*	*	*	*	*	*	*	*	*	*	*	*	*	*	*	*	*	*	*
!	!	!	!	!	!	!	!	!	!LO:LB:g=original	!	!	!	!	!	!	!	!	!	!	!	!	!	!	!	!	!	!	!	!	!	!	!	!
8BB/	_	.	8BB/	.	8B/	.	8d/	.	16f|/LL	.	.	.	.	.	.	.	.	.	.	.	.	.	.	.	.	.	.	.	.	.	.	.	.
.	.	.	.	.	.	.	.	.	(16G/	.	.	.	.	.	.	.	.	.	.	.	.	.	.	.	.	.	.	.	.	.	.	.	.
8r	X	.	8r	.	8r	.	8r	.	16A-/	.	.	.	.	.	.	.	.	.	.	.	.	.	.	.	.	.	.	.	.	.	.	.	.
.	.	.	.	.	.	.	.	.	16G/JJ)	.	.	.	.	.	.	.	.	.	.	.	.	.	.	.	.	.	.	.	.	.	.	.	.
8BB/	.	.	8BB/	.	8B/	.	8d/	.	16f|/LL	.	.	.	.	.	.	.	.	.	.	.	.	.	.	.	.	.	.	.	.	.	.	.	.
.	.	.	.	.	.	.	.	.	(16G/	.	.	.	.	.	.	.	.	.	.	.	.	.	.	.	.	.	.	.	.	.	.	.	.
8r	.	.	8r	.	8r	.	8r	.	16A-/	.	.	.	.	.	.	.	.	.	.	.	.	.	.	.	.	.	.	.	.	.	.	.	.
.	.	.	.	.	.	.	.	.	16G/JJ)	.	.	.	.	.	.	.	.	.	.	.	.	.	.	.	.	.	.	.	.	.	.	.	.
=6	=6	=6	=6	=6	=6	=6	=6	=6	=6	=6	=6	=6	=6	=6	=6	=6	=6	=6	=6	=6	=6	=6	=6	=6	=6	=6	=6	=6	=6	=6	=6	=6	=6
8C/	5_ 3_	.	8C/	.	8c\	.	8e-/	.	16e-/LL	.	.	.	.	.	.	.	.	.	.	.	.	.	2.ryy	2.ryy	2.ryy	2.G/	.	2.G/	.	2.cc\	.	2.ee-\	.
.	.	.	.	.	.	.	.	.	16G/	.	.	.	.	.	.	.	.	.	.	.	.	.	.	.	.	.	.	.	.	.	.	.	.
8r	.	.	8r	.	8r	.	8r	.	16A-/	.	.	.	.	.	.	.	.	.	.	.	.	.	.	.	.	.	.	.	.	.	.	.	.
.	.	.	.	.	.	.	.	.	16G/JJ	.	.	.	.	.	.	.	.	.	.	.	.	.	.	.	.	.	.	.	.	.	.	.	.
8C/	_ _	.	8C/	.	8c\	.	8e-/	.	16e-/LL	.	.	.	.	.	.	.	.	.	.	.	.	.	.	.	.	.	.	.	.	.	.	.	.
.	.	.	.	.	.	.	.	.	16G/	.	.	.	.	.	.	.	.	.	.	.	.	.	.	.	.	.	.	.	.	.	.	.	.
8r	X X	.	8r	.	8r	.	8r	.	16A-/	.	.	.	.	.	.	.	.	.	.	.	.	.	.	.	.	.	.	.	.	.	.	.	.
.	.	.	.	.	.	.	.	.	16G/JJ	.	.	.	.	.	.	.	.	.	.	.	.	.	.	.	.	.	.	.	.	.	.	.	.
8C/	.	.	8C/	.	8c\	.	8e-/	.	16e-/LL	.	.	.	.	.	.	.	.	.	.	.	.	.	.	.	.	.	.	.	.	.	.	.	.
.	.	.	.	.	.	.	.	.	16G/	.	.	.	.	.	.	.	.	.	.	.	.	.	.	.	.	.	.	.	.	.	.	.	.
8r	.	.	8r	.	8r	.	8r	.	16A-/	.	.	.	.	.	.	.	.	.	.	.	.	.	.	.	.	.	.	.	.	.	.	.	.
.	.	.	.	.	.	.	.	.	16G/JJ	.	.	.	.	.	.	.	.	.	.	.	.	.	.	.	.	.	.	.	.	.	.	.	.
=7	=7	=7	=7	=7	=7	=7	=7	=7	=7	=7	=7	=7	=7	=7	=7	=7	=7	=7	=7	=7	=7	=7	=7	=7	=7	=7	=7	=7	=7	=7	=7	=7	=7
*	*	*	*	*	*	*	*	*	*	*	*	*	*	*	*	*	*	*	*	*	*	*	*	*	*	*tremolo	*	*tremolo	*	*	*	*	*
!LO:SIC:v:s=8BBn\L	!	!	!	!	!	!	!	!	!	!	!	!	!	!	!	!	!	!	!	!	!	!	!	!	!	!	!	!	!	!	!	!	!
8BB-/L	3	.	8BBn/L	.	8Bn\L	.	8G/	.	16d/LL	.	.	.	.	.	.	.	.	.	.	.	.	.	2.ryy	2.ryy	2.ryy	8G/L	.	8G/L	.	2.g/	.	4dd\	.
.	.	.	.	.	.	.	.	.	16G/	.	.	.	.	.	.	.	.	.	.	.	.	.	.	.	.	.	.	.	.	.	.	.	.
!LO:SIC:v:s=8BB/	!	!	!	!	!	!	!	!	!	!	!	!	!	!	!	!	!	!	!	!	!	!	!	!	!	!	!	!	!	!	!	!	!
8BB-/	.	.	8BB/	.	8B\	.	4G/	.	16A-/	.	.	.	.	.	.	.	.	.	.	.	.	.	.	.	.	8G/	.	8G/	.	.	.	.	.
.	.	.	.	.	.	.	.	.	16G/JJ	.	.	.	.	.	.	.	.	.	.	.	.	.	.	.	.	.	.	.	.	.	.	.	.
8C/	3	.	8C/	.	8c\	.	.	.	16e-/LL	.	.	.	.	.	.	.	.	.	.	.	.	.	.	.	.	8G/	.	8G/	.	.	.	4ee-\	.
.	.	.	.	.	.	.	.	.	16G/	.	.	.	.	.	.	.	.	.	.	.	.	.	.	.	.	.	.	.	.	.	.	.	.
8C/	.	.	8C/	.	8c\	.	4G/	.	16A-/	.	.	.	.	.	.	.	.	.	.	.	.	.	.	.	.	8G/	.	8G/	.	.	.	.	.
.	.	.	.	.	.	.	.	.	16G/JJ	.	.	.	.	.	.	.	.	.	.	.	.	.	.	.	.	.	.	.	.	.	.	.	.
8D/	3	.	8D/	.	8d\	.	.	.	16f/LL	.	.	.	.	.	.	.	.	.	.	.	.	.	.	.	.	8G/	.	8G/	.	.	.	4ff\	.
.	.	.	.	.	.	.	.	.	16G/	.	.	.	.	.	.	.	.	.	.	.	.	.	.	.	.	.	.	.	.	.	.	.	.
8D/J	.	.	8D/J	.	8d\J	.	8G/	.	16A-/	.	.	.	.	.	.	.	.	.	.	.	.	.	.	.	.	8G/J	.	8G/J	.	.	.	.	.
.	.	.	.	.	.	.	.	.	16G/JJ	.	.	.	.	.	.	.	.	.	.	.	.	.	.	.	.	.	.	.	.	.	.	.	.
*	*	*	*	*	*	*	*	*	*	*	*	*	*	*	*	*	*	*	*	*	*	*	*	*	*	*Xtremolo	*	*Xtremolo	*	*	*	*	*
!	!	!	!	!	!	!	!LO:LB:g=original	!	!	!	!	!	!	!	!	!	!	!	!	!	!	!	!	!	!	!	!	!	!	!	!	!	!
=8	=8	=8	=8	=8	=8	=8	=8	=8	=8	=8	=8	=8	=8	=8	=8	=8	=8	=8	=8	=8	=8	=8	=8	=8	=8	=8	=8	=8	=8	=8	=8	=8	=8
!LO:TX:t=P:problem:mixed beam	!	!	!LO:TX:t=P:problem:mixed beam	!	!	!	!	!	!	!	!	!	!	!	!	!	!	!	!	!	!	!	!	!	!	!	!	!	!	!	!	!	!
8E-\L	.	.	8E-\L	.	8e-\L	.	8c/L	.	16g/LL	.	.	.	.	.	.	.	.	.	.	.	.	.	2.ryy	2.ryy	2.ryy	8G/	.	8G/	.	8g\L	.	8gg\L	.
.	.	.	.	.	.	.	.	.	16e-/	.	.	.	.	.	.	.	.	.	.	.	.	.	.	.	.	.	.	.	.	.	.	.	.
8F\	.	.	8F\	.	8f\J	.	8c/	.	16a-/	.	.	.	.	.	.	.	.	.	.	.	.	.	.	.	.	8r	.	8r	.	8cc\J	.	16aa-\L	.
.	.	.	.	.	.	.	.	.	16f/JJ	.	.	.	.	.	.	.	.	.	.	.	.	.	.	.	.	.	.	.	.	.	.	16ff\JJ	.
!	!	!	!	!	!LO:LB:g=original	!	!	!	!	!	!	!	!	!	!	!	!	!	!	!	!	!	!	!	!	!	!	!	!	!	!	!	!
!	!	!	!	!	!LO:TX:t=P:problem:mixed beam	!	!	!	!	!	!	!	!	!	!	!	!	!	!	!	!	!	!	!	!	!	!	!	!	!	!	!	!
8G\	4	.	8G\	.	8g\L	.	8c/	.	4e-/	.	.	.	.	.	.	.	.	.	.	.	.	.	.	.	.	4G/	.	4G/	.	4cc\	.	4ee-\	.
8G\	.	.	8G\	.	8g\	.	8c/	.	.	.	.	.	.	.	.	.	.	.	.	.	.	.	.	.	.	.	.	.	.	.	.	.	.
8GG/	n	.	8GG/	.	8G/	.	8Bn/	.	4dt/	.	.	.	.	.	.	.	.	.	.	.	.	.	.	.	.	4G/	.	4G/	.	4bn\	.	4dd\	.
8GG/J	.	.	8GG/J	.	8G/J	.	8B/J	.	.	.	.	.	.	.	.	.	.	.	.	.	.	.	.	.	.	.	.	.	.	.	.	.	.
=9	=9	=9	=9	=9	=9	=9	=9	=9	=9	=9	=9	=9	=9	=9	=9	=9	=9	=9	=9	=9	=9	=9	=9	=9	=9	=9	=9	=9	=9	=9	=9	=9	=9
!	!	!	!	!	!	!	!	!	!	!	!LO:N:vis=0	!	!	!	!	!	!LO:N:vis=0	!	!	!	!	!	!	!	!	!	!	!	!	!	!	!	!
8C/L	.	.	8C/L	.	8c/L	.	4c/	.	4c/	.	1.r	.	.	2.r	.	.	1.r	.	.	4r	.	.	2.ryy	2.ryy	2.ryy	4G/	.	4G/	.	4cc\	.	4cc\	.
8GG/J	.	.	8GG/J	.	8G/J	.	.	.	.	.	.	.	.	.	.	.	.	.	.	.	.	.	.	.	.	.	.	.	.	.	.	.	.
4CC/	.	.	4CC/	.	4C/	.	4r	.	4r	.	.	.	.	.	.	.	.	.	.	4r	.	.	.	.	.	4r	.	4r	.	4r	.	4r	.
!	!	!	!	!	!	!	!	!	!	!	!	!	!	!	!	!	!	!	!	!	!	!LO:DY:a:t=p.	!	!	!	!	!	!	!	!	!	!	!
4r	.	.	4r	.	4r	.	4r	.	8r	.	.	.	.	.	.	.	.	.	.	8r	.	p	.	.	.	4r	.	4r	.	4r	.	4r	.
!	!	!	!	!	!	!	!	!	!	!LO:DY:a:rj:t=pp.	!	!	!	!	!	!	!	!	!	!	!	!	!	!	!	!	!	!	!	!	!	!	!
.	.	.	.	.	.	.	.	.	8cc\	pp	.	.	.	.	.	.	.	.	.	8cc\	Qui	.	.	.	.	.	.	.	.	.	.	.	.
=10	=10	=10	=10	=10	=10	=10	=10	=10	=10	=10	=10	=10	=10	=10	=10	=10	=10	=10	=10	=10	=10	=10	=10	=10	=10	=10	=10	=10	=10	=10	=10	=10	=10
!	!	!	!	!	!	!	!	!	!	!	!	!	!	!	!	!	!	!	!	!	!	!	!	!	!	!LO:N:vis=0	!	!LO:N:vis=0	!	!LO:N:vis=0	!	!LO:N:vis=0	!
4C/	.	.	4C/	.	4c\	.	8.c/L	.	8.cc\L	.	.	.	.	4r	.	.	.	.	.	8.cc\L	tol-	.	2.ryy	2.ryy	2.ryy	1.r	.	1.r	.	1.r	.	1.r	.
.	.	.	.	.	.	.	16Bn/kJ	.	16dd\k	.	.	.	.	.	.	.	.	.	.	16dd\Jk	.	.	.	.	.	.	.	.	.	.	.	.	.
4r	.	.	4r	.	4C/	.	8c/L	.	8ee-\	.	.	.	.	4r	.	.	.	.	.	4ee-\	-lis	.	.	.	.	.	.	.	.	.	.	.	.
.	.	.	.	.	.	.	8c/	.	8ee-\	.	.	.	.	.	.	.	.	.	.	.	.	.	.	.	.	.	.	.	.	.	.	.	.
!	!	!	!	!	!	!	!	!	!	!	!	!	!	!	!	!LO:DY:a:t=p.	!	!	!	!	!	!	!	!	!	!	!	!	!	!	!	!	!
4r	.	.	4r	.	4r	.	8c/	.	8ee-\	.	.	.	.	8r	.	p	.	.	.	8r	.	.	.	.	.	.	.	.	.	.	.	.	.
*	*	*	*	*	*	*	*	*	*	*	*	*	*	*	*	*	*	*	*	*	*ij	*	*	*	*	*	*	*	*	*	*	*	*
.	.	.	.	.	.	.	8c/J	.	8ee-\J	.	.	.	.	8c\	Qui	.	.	.	.	8ee-\	Qui	.	.	.	.	.	.	.	.	.	.	.	.
!LO:LB:g=original	!	!	!LO:LB:g=original	!	!	!	!	!	!LO:LB:g=original	!	!	!	!	!	!	!	!	!	!	!	!	!	!	!	!	!	!	!	!	!	!	!	!
=11	=11	=11	=11	=11	=11	=11	=11	=11	=11	=11	=11	=11	=11	=11	=11	=11	=11	=11	=11	=11	=11	=11	=11	=11	=11	=11	=11	=11	=11	=11	=11	=11	=11
4C/	.	.	4C/	.	4c\	.	8.c/L	.	8.ee-\L	.	2.r	.	.	8.c\L	tol-	.	2.r	.	.	8.ee-\L	tol-	.	2.ryy	2.ryy	2.ryy	.	.	.	.	.	.	.	.
.	.	.	.	.	.	.	16d/Jk	.	16ff\Jk	.	.	.	.	16d\Jk	.	.	.	.	.	16ff\Jk	.	.	.	.	.	.	.	.	.	.	.	.	.
4CC/	.	.	4C/	.	4C/	.	4e-/	.	16gg\LL	.	.	.	.	4e-\	-lis	.	.	.	.	4gg\	-lis	.	.	.	.	.	.	.	.	.	.	.	.
*	*	*	*	*	*	*	*	*	*	*	*	*	*	*	*	*	*	*	*	*	*Xij	*	*	*	*	*	*	*	*	*	*	*	*
.	.	.	.	.	.	.	.	.	16ff#X\	.	.	.	.	.	.	.	.	.	.	.	.	.	.	.	.	.	.	.	.	.	.	.	.
.	.	.	.	.	.	.	.	.	16aa-\	.	.	.	.	.	.	.	.	.	.	.	.	.	.	.	.	.	.	.	.	.	.	.	.
.	.	.	.	.	.	.	.	.	16gg\JJ	.	.	.	.	.	.	.	.	.	.	.	.	.	.	.	.	.	.	.	.	.	.	.	.
!LO:TX:a:t=Tutti	!	!	!	!	!	!	!	!	!	!	!	!	!	!	!	!	!	!	!	!	!	!	!	!	!	!	!	!	!	!	!	!	!
4r	.	.	4r	.	4r	.	4r	.	16ffn\LL	.	.	.	.	4r	.	.	.	.	.	4r	.	.	.	.	.	.	.	.	.	.	.	.	.
.	.	.	.	.	.	.	.	.	16ee-\	.	.	.	.	.	.	.	.	.	.	.	.	.	.	.	.	.	.	.	.	.	.	.	.
.	.	.	.	.	.	.	.	.	16dd\	.	.	.	.	.	.	.	.	.	.	.	.	.	.	.	.	.	.	.	.	.	.	.	.
.	.	.	.	.	.	.	.	.	16cc\JJ	.	.	.	.	.	.	.	.	.	.	.	.	.	.	.	.	.	.	.	.	.	.	.	.
=12	=12	=12	=12	=12	=12	=12	=12	=12	=12	=12	=12	=12	=12	=12	=12	=12	=12	=12	=12	=12	=12	=12	=12	=12	=12	=12	=12	=12	=12	=12	=12	=12	=12
*2\right	*	*	*2\right	*	*	*	*2\right	*	*	*	*	*	*	*	*	*	*	*	*	*	*	*	*	*	*	*2\right	*	*2\right	*	*	*	*	*
*tremolo	*	*	*tremolo	*	*tremolo	*	*tremolo	*	*	*	*	*	*	*	*	*	*	*	*	*	*	*	*	*	*	*	*	*	*	*	*	*	*
!	!	!	!	!LO:DY:a:rj:t=ff&colon;	!	!LO:DY:a:rj:t=ffor&colon;	!	!LO:DY:a:t=ffor&colon;	!	!LO:DY:a:rj:t=ffor.	!	!	!LO:DY:a:rj:t=ffor&colon;	!	!	!	!	!	!LO:DY:a:rj:t=ff.	!	!	!LO:DY:a:rj:t=ff&colon;	!	!	!	!	!LO:DY:a:t=ffor&colon;	!	!LO:DY:a:rj:t=ffor&colon;	!	!LO:DY:a:rj:t=ffor&colon;	!	!LO:DY:a:rj:t=ffor&colon;
8c\L	6	.	8c\L	ff	8c\L	ff	8ee-\L	ff	2aa-\	ff	4c\	pec-	ff	4c\	pec-	.	4a-\	pec-	ff	4ee-\	pec-	ff	2.ryy	2.ryy	2.ryy	2e-\	ff	2a-\	ff	2ee-\	ff	2aa-\	ff
8c\	.	.	8c\	.	8c\	.	8ee-\	.	.	.	.	.	.	.	.	.	.	.	.	.	.	.	.	.	.	.	.	.	.	.	.	.	.
8c\	.	.	8c\	.	8c\	.	8ee-\	.	.	.	4c\	-ca-	.	4c\	-ca-	.	4a-\	-ca-	.	4ee-\	-ca-	.	.	.	.	.	.	.	.	.	.	.	.
8c\J	.	.	8c\	.	8c\	.	8ee-\	.	.	.	.	.	.	.	.	.	.	.	.	.	.	.	.	.	.	.	.	.	.	.	.	.	.
*Xtremolo	*	*	*	*	*	*	*	*	*	*	*	*	*	*	*	*	*	*	*	*	*	*	*	*	*	*	*	*	*	*	*	*	*
8c\L	5	.	8c\	.	8c\	.	8ee-\	.	4gg\	.	4c\	-ta	.	4c\	-ta	.	4g\	-ta	.	4ee-\	-ta	.	.	.	.	4e-\	.	4g\	.	4ee-\	.	4gg\	.
8c\J	.	.	8c\J	.	8c\J	.	8ee-\J	.	.	.	.	.	.	.	.	.	.	.	.	.	.	.	.	.	.	.	.	.	.	.	.	.	.
*	*	*	*Xtremolo	*	*Xtremolo	*	*Xtremolo	*	*	*	*	*	*	*	*	*	*	*	*	*	*	*	*	*	*	*	*	*	*	*	*	*	*
=13	=13	=13	=13	=13	=13	=13	=13	=13	=13	=13	=13	=13	=13	=13	=13	=13	=13	=13	=13	=13	=13	=13	=13	=13	=13	=13	=13	=13	=13	=13	=13	=13	=13
.	.	.	.	.	.	.	.	.	8qgg/	.	.	.	.	.	.	.	.	.	.	.	.	.	.	.	.	.	.	.	.	.	.	.	.
!	!	!	!	!	!	!	!	!	!LO:TX:t=P:problem:# przed 8qgg/	!	!	!	!	!	!	!	!	!	!	!	!	!	!	!	!	!	!	!	!	!	!	!	!
4c\	4| 3	.	4c\	.	4an\	.	4ee-\	.	8.ff#Xt\L	.	4c\	mun-	.	4An\	mun-	.	4f#X\	mun-	.	4ee-\	mun-	.	2.ryy	2.ryy	2.ryy	4e-\	.	4aX\	.	4ee-\	.	4ff#X\	.
!	!	!	!	!	!	!	!	!	!LO:SIC:v:s=32een\LL	!	!	!	!	!	!	!	!	!	!	!	!	!	!	!	!	!	!	!	!	!	!	!	!
.	.	.	.	.	.	.	.	.	32ee-\LL	.	.	.	.	.	.	.	.	.	.	.	.	.	.	.	.	.	.	.	.	.	.	.	.
.	.	.	.	.	.	.	.	.	32ff#\JJJ	.	.	.	.	.	.	.	.	.	.	.	.	.	.	.	.	.	.	.	.	.	.	.	.
4Bn\	6	.	4Bn\	.	4g\	.	4dd\	.	16gg\LL	.	4Bn\	-di	.	4G/	-di	.	4g\	-di	.	4dd\	-di	.	.	.	.	4g\	.	4g\	.	4dd\	.	4gg\	.
.	.	.	.	.	.	.	.	.	16gg\	.	.	.	.	.	.	.	.	.	.	.	.	.	.	.	.	.	.	.	.	.	.	.	.
!	!	!	!	!	!	!	!	!	!	!LO:DY:a:t=p&colon;	!	!	!	!	!	!	!	!	!	!	!	!	!	!	!	!	!	!	!	!	!	!	!
.	.	.	.	.	.	.	.	.	16dd\	p	.	.	.	.	.	.	.	.	.	.	.	.	.	.	.	.	.	.	.	.	.	.	.
.	.	.	.	.	.	.	.	.	16bn\JJ	.	.	.	.	.	.	.	.	.	.	.	.	.	.	.	.	.	.	.	.	.	.	.	.
!	!	!LO:DY:a:t=pp.	!	!	!	!	!	!	!	!	!	!	!	!	!	!	!	!	!	!	!	!	!	!	!	!	!	!	!	!	!	!	!
4r	.	pp	4r	.	4r	.	4r	.	16g/LL	.	4r	.	.	4r	.	.	4r	.	.	4r	.	.	.	.	.	4r	.	4r	.	4r	.	4r	.
.	.	.	.	.	.	.	.	.	16g/	.	.	.	.	.	.	.	.	.	.	.	.	.	.	.	.	.	.	.	.	.	.	.	.
.	.	.	.	.	.	.	.	.	16d/	.	.	.	.	.	.	.	.	.	.	.	.	.	.	.	.	.	.	.	.	.	.	.	.
.	.	.	.	.	.	.	.	.	16Bn/JJ	.	.	.	.	.	.	.	.	.	.	.	.	.	.	.	.	.	.	.	.	.	.	.	.
=14	=14	=14	=14	=14	=14	=14	=14	=14	=14	=14	=14	=14	=14	=14	=14	=14	=14	=14	=14	=14	=14	=14	=14	=14	=14	=14	=14	=14	=14	=14	=14	=14	=14
*	*	*	*	*	*	*	*	*	*	*	*	*	*	*2\right	*	*	*2\right	*	*	*2\right	*	*	*	*	*	*	*	*	*	*	*	*	*
!	!	!	!	!LO:DY:a:t=p.	!	!	!	!LO:DY:a:t=p.	!	!	!	!	!LO:DY:a:rj:t=p.	!	!	!LO:DY:a:t=p.	!	!	!LO:DY:a:rj:t=p.	!	!	!LO:DY:a:rj:t=p&colon;	!	!	!	!	!	!	!LO:DY:a:t=p.	!	!LO:DY:a:t=pia&colon;	!	!LO:DY:a:rj:t=p&colon;
8Bn\	.	.	8Bn\	p	8Bn/	.	8d/	p	16G|/LL	.	2BBn/	mi-	p	2d\	mi-	p	2g\	mi-	p	2ff\	mi-	p	2.ryy	2.ryy	2.ryy	4r	.	4r	p	2.dd\	pp	2.ffn\	p
.	.	.	.	.	.	.	.	.	(16G/	.	.	.	.	.	.	.	.	.	.	.	.	.	.	.	.	.	.	.	.	.	.	.	.
8r	.	.	8r	.	8r	.	8r	.	16A-/	.	.	.	.	.	.	.	.	.	.	.	.	.	.	.	.	.	.	.	.	.	.	.	.
.	.	.	.	.	.	.	.	.	16G/JJ)	.	.	.	.	.	.	.	.	.	.	.	.	.	.	.	.	.	.	.	.	.	.	.	.
!	!	!	!	!	!	!	!	!	!	!	!	!	!	!	!	!	!	!	!	!	!	!	!	!	!	!	!LO:DY:a:rj:t=p&colon;	!	!	!	!	!	!
8B\	6_ 5_	.	8B\	.	8B/	.	8d/	.	16f/LL	.	.	.	.	.	.	.	.	.	.	.	.	.	.	.	.	4G/	p	4g\	.	.	.	.	.
.	.	.	.	.	.	.	.	.	16G/	.	.	.	.	.	.	.	.	.	.	.	.	.	.	.	.	.	.	.	.	.	.	.	.
8r	.	.	8r	.	8r	.	8r	.	16A-/	.	.	.	.	.	.	.	.	.	.	.	.	.	.	.	.	.	.	.	.	.	.	.	.
.	.	.	.	.	.	.	.	.	16G/JJ	.	.	.	.	.	.	.	.	.	.	.	.	.	.	.	.	.	.	.	.	.	.	.	.
8B\	_ _	.	8B\	.	8d\	.	8d/	.	16f/LL	.	4BB/	-ſe-	.	4d\	-se-	.	4g\	-ſe-	.	4ff\	-se-	.	.	.	.	4G/	.	4g\	.	.	.	.	.
.	.	.	.	.	.	.	.	.	16G/	.	.	.	.	.	.	.	.	.	.	.	.	.	.	.	.	.	.	.	.	.	.	.	.
8r	X	.	8r	.	8r	.	8r	.	16A-/	.	.	.	.	.	.	.	.	.	.	.	.	.	.	.	.	.	.	.	.	.	.	.	.
.	.	.	.	.	.	.	.	.	16G/JJ	.	.	.	.	.	.	.	.	.	.	.	.	.	.	.	.	.	.	.	.	.	.	.	.
=15	=15	=15	=15	=15	=15	=15	=15	=15	=15	=15	=15	=15	=15	=15	=15	=15	=15	=15	=15	=15	=15	=15	=15	=15	=15	=15	=15	=15	=15	=15	=15	=15	=15
8c\	.	.	8c\	.	8G/	.	8e-/	.	16e-/LL	.	2C/	-re-	.	2c\	-re-	.	2g\	-re-	.	2ee-\	-re-	.	2.ryy	2.ryy	2.ryy	2.G/	.	2.g\	.	2.g/	.	2.ee-\	.
.	.	.	.	.	.	.	.	.	16G/	.	.	.	.	.	.	.	.	.	.	.	.	.	.	.	.	.	.	.	.	.	.	.	.
8r	.	.	8r	.	8r	.	8r	.	16A-/	.	.	.	.	.	.	.	.	.	.	.	.	.	.	.	.	.	.	.	.	.	.	.	.
.	.	.	.	.	.	.	.	.	16G/JJ	.	.	.	.	.	.	.	.	.	.	.	.	.	.	.	.	.	.	.	.	.	.	.	.
8c\	.	.	8c\	.	8G/	.	8e-/	.	16e-/LL	.	.	.	.	.	.	.	.	.	.	.	.	.	.	.	.	.	.	.	.	.	.	.	.
.	.	.	.	.	.	.	.	.	16G/	.	.	.	.	.	.	.	.	.	.	.	.	.	.	.	.	.	.	.	.	.	.	.	.
8r	.	.	8r	.	8r	.	8r	.	16A-/	.	.	.	.	.	.	.	.	.	.	.	.	.	.	.	.	.	.	.	.	.	.	.	.
.	.	.	.	.	.	.	.	.	16G/JJ	.	.	.	.	.	.	.	.	.	.	.	.	.	.	.	.	.	.	.	.	.	.	.	.
8c\	.	.	8c\	.	8G/	.	8e-/	.	16e-/LL	.	4C/	-re	.	4c\	-re	.	4g\	-re	.	4ee-\	-re	.	.	.	.	.	.	.	.	.	.	.	.
.	.	.	.	.	.	.	.	.	16G/	.	.	.	.	.	.	.	.	.	.	.	.	.	.	.	.	.	.	.	.	.	.	.	.
!LO:TX:a:t=Tutti	!	!	!	!	!	!	!	!	!	!	!	!	!	!	!	!	!	!	!	!	!	!	!	!	!	!	!	!	!	!	!	!	!
8r	.	.	8r	.	8r	.	8r	.	16A-/	.	.	.	.	.	.	.	.	.	.	.	.	.	.	.	.	.	.	.	.	.	.	.	.
.	.	.	.	.	.	.	.	.	16G/JJ	.	.	.	.	.	.	.	.	.	.	.	.	.	.	.	.	.	.	.	.	.	.	.	.
*	*	*	*	*	*	*	*	*	*custos:e	*	*	*	*	*	*	*	*	*	*	*	*	*	*	*	*	*	*	*	*	*	*	*	*
!	!	!	!	!	!	!	!	!	!LO:LB:g=original	!	!	!	!	!	!	!	!	!	!	!LO:LB:g=original	!	!	!	!	!	!	!	!	!	!LO:LB:g=original	!	!	!
=16	=16	=16	=16	=16	=16	=16	=16	=16	=16	=16	=16	=16	=16	=16	=16	=16	=16	=16	=16	=16	=16	=16	=16	=16	=16	=16	=16	=16	=16	=16	=16	=16	=16
*tremolo	*	*	*tremolo	*	*tremolo	*	*tremolo	*	*	*	*	*ij	*	*	*	*	*	*ij	*	*	*	*	*	*	*	*tremolo	*	*tremolo	*	*tremolo	*	*tremolo	*
!	!	!	!	!LO:DY:a:t=ffor&colon;	!	!LO:DY:a:t=ffor&colon;	!	!LO:DY:a:t=ffor&colon;	!	!LO:DY:a:t=ffor&colon;	!	!	!LO:DY:a:rj:t=ff.	!	!	!LO:DY:a:t=f&colon;	!	!	!LO:DY:a:rj:t=ff.	!	!	!LO:DY:a:rj:t=ff.	!	!	!	!	!LO:DY:a:t=ffor&colon;	!	!LO:DY:a:t=ff.	!	!LO:DY:a:t=ffor.	!	!LO:DY:a:t=ffor&colon;
8C/L	6	.	8C/L	ff	8A-/L	ff	8e-/L	ff	16e-/LL	ff	2C/	mi-	ff	2c\	mi-	f	2a-\	mi-	ff	2ee-\	mi-	ff	2.ryy	2.ryy	2.ryy	8e-\L	ff	8e-\L	ff	8a-X/L	ff	8ee-\L	ff
.	.	.	.	.	.	.	.	.	16A-/	.	.	.	.	.	.	.	.	.	.	.	.	.	.	.	.	.	.	.	.	.	.	.	.
8C/	.	.	8C/	.	8A-/	.	8e-/	.	16c/	.	.	.	.	.	.	.	.	.	.	.	.	.	.	.	.	8e-\	.	8e-\	.	8a-/	.	8ee-\	.
.	.	.	.	.	.	.	.	.	16e-/JJ	.	.	.	.	.	.	.	.	.	.	.	.	.	.	.	.	.	.	.	.	.	.	.	.
8C/	.	.	8C/	.	8A-/	.	8e-/	.	16a-/LL	.	.	.	.	.	.	.	.	.	.	.	.	.	.	.	.	8e-\	.	8e-\	.	8a-/	.	8ee-\	.
.	.	.	.	.	.	.	.	.	16e-/	.	.	.	.	.	.	.	.	.	.	.	.	.	.	.	.	.	.	.	.	.	.	.	.
8C/	.	.	8C/	.	8A-/	.	8e-/	.	16a-/	.	.	.	.	.	.	.	.	.	.	.	.	.	.	.	.	8e-\	.	8e-\	.	8a-/	.	8ee-\	.
.	.	.	.	.	.	.	.	.	16cc/JJ	.	.	.	.	.	.	.	.	.	.	.	.	.	.	.	.	.	.	.	.	.	.	.	.
8C/	.	.	8C/	.	8A-/	.	8e-/	.	16ee-\LL	.	4C/	-ſe-	.	4c\	-ſe-	.	4a-\	-ſe-	.	4ee-\	-se-	.	.	.	.	8e-\	.	8e-\	.	8a-/	.	8ee-\	.
.	.	.	.	.	.	.	.	.	16cc\	.	.	.	.	.	.	.	.	.	.	.	.	.	.	.	.	.	.	.	.	.	.	.	.
8C/J	.	.	8C/J	.	8A-/J	.	8e-/J	.	16b-\	.	.	.	.	.	.	.	.	.	.	.	.	.	.	.	.	8e-\J	.	8e-\J	.	8a-/J	.	8ee-\J	.
.	.	.	.	.	.	.	.	.	16a-\JJ	.	.	.	.	.	.	.	.	.	.	.	.	.	.	.	.	.	.	.	.	.	.	.	.
*	*	*	*	*	*	*	*	*	*	*	*	*	*	*	*	*	*	*	*	*	*	*	*	*	*	*Xtremolo	*	*Xtremolo	*	*Xtremolo	*	*	*
!	!	!	!	!	!	!	!	!	!	!	!	!	!	!LO:LB:g=original	!	!	!	!	!	!	!	!	!	!	!	!	!	!	!	!	!	!LO:LB:g=original	!
=17	=17	=17	=17	=17	=17	=17	=17	=17	=17	=17	=17	=17	=17	=17	=17	=17	=17	=17	=17	=17	=17	=17	=17	=17	=17	=17	=17	=17	=17	=17	=17	=17	=17
*	*	*	*	*	*	*	*	*	*	*	*2\right	*	*	*	*	*	*	*	*	*	*	*	*	*	*	*	*	*	*	*	*	*	*
8D\L	6 3	.	8D\L	.	8A-/L	.	8fL 8B-/	.	16a-/LL	.	2D\	-re-	.	2B-\	-re-	.	2a-\	-re-	.	2ff\	-re-	.	2.ryy	2.ryy	2.ryy	2.B-/	.	2.f\	.	2.a-/	.	8ff\L	.
.	.	.	.	.	.	.	.	.	16B-/	.	.	.	.	.	.	.	.	.	.	.	.	.	.	.	.	.	.	.	.	.	.	.	.
8D\	.	.	8D\	.	8A-/	.	8f 8B-/	.	16d/	.	.	.	.	.	.	.	.	.	.	.	.	.	.	.	.	.	.	.	.	.	.	8ff\	.
.	.	.	.	.	.	.	.	.	16f/JJ	.	.	.	.	.	.	.	.	.	.	.	.	.	.	.	.	.	.	.	.	.	.	.	.
8D\	.	.	8D\	.	8A-/	.	8f 8B-/	.	16b-\LL	.	.	.	.	.	.	.	.	.	.	.	.	.	.	.	.	.	.	.	.	.	.	8ff\	.
.	.	.	.	.	.	.	.	.	16dd\	.	.	.	.	.	.	.	.	.	.	.	.	.	.	.	.	.	.	.	.	.	.	.	.
8D\	.	.	8D\	.	8A-/	.	8f 8B-/	.	16ff\	.	.	.	.	.	.	.	.	.	.	.	.	.	.	.	.	.	.	.	.	.	.	8ff\	.
.	.	.	.	.	.	.	.	.	16ee-\JJ	.	.	.	.	.	.	.	.	.	.	.	.	.	.	.	.	.	.	.	.	.	.	.	.
8D\	.	.	8D\	.	8A-/	.	8f 8B-/	.	16dd\LL	.	4D\	-re	.	4B-\	-re	.	4a-\	-re	.	4ff\	-re	.	.	.	.	.	.	.	.	.	.	8ff\	.
*	*	*	*	*	*	*	*	*	*	*	*	*Xij	*	*	*	*	*	*	*	*	*	*	*	*	*	*	*	*	*	*	*	*	*
.	.	.	.	.	.	.	.	.	16cc\	.	.	.	.	.	.	.	.	.	.	.	.	.	.	.	.	.	.	.	.	.	.	.	.
8D\J	.	.	8D\J	.	8A-/J	.	8fJ 8B-/	.	16b-\	.	.	.	.	.	.	.	.	.	.	.	.	.	.	.	.	.	.	.	.	.	.	8ff\J	.
.	.	.	.	.	.	.	.	.	16a-\JJ	.	.	.	.	.	.	.	.	.	.	.	.	.	.	.	.	.	.	.	.	.	.	.	.
!	!	!	!	!	!	!	!LO:LB:g=original	!	!	!	!	!	!	!	!	!	!	!	!	!	!	!	!	!	!	!	!	!	!	!	!	!	!
=18	=18	=18	=18	=18	=18	=18	=18	=18	=18	=18	=18	=18	=18	=18	=18	=18	=18	=18	=18	=18	=18	=18	=18	=18	=18	=18	=18	=18	=18	=18	=18	=18	=18
*	*	*	*	*	*	*	*	*	*	*	*	*	*	*	*ij	*	*	*	*	*	*ij	*	*	*	*	*	*	*	*	*	*	*	*
8E-\L	.	.	8E-\L	.	8B-/L	.	8g/L	.	16g/LL	.	2E-\	mi-	.	2B-\	mi-	.	2g\	mi-	.	2ee-\	mi-	.	2.ryy	2.ryy	2.ryy	2.e-\	.	2.g\	.	2.b-\	.	8gg\L	.
.	.	.	.	.	.	.	.	.	16B-/	.	.	.	.	.	.	.	.	.	.	.	.	.	.	.	.	.	.	.	.	.	.	.	.
8E-\	.	.	8E-\	.	8B-/	.	8g/	.	16e-/	.	.	.	.	.	.	.	.	.	.	.	.	.	.	.	.	.	.	.	.	.	.	8gg\	.
.	.	.	.	.	.	.	.	.	16g/JJ	.	.	.	.	.	.	.	.	.	.	.	.	.	.	.	.	.	.	.	.	.	.	.	.
8E-\	.	.	8E-\	.	8B-/	.	8g/	.	16b-\LL	.	.	.	.	.	.	.	.	.	.	.	.	.	.	.	.	.	.	.	.	.	.	8gg\	.
.	.	.	.	.	.	.	.	.	16ee-\	.	.	.	.	.	.	.	.	.	.	.	.	.	.	.	.	.	.	.	.	.	.	.	.
8E-\	.	.	8E-\	.	8B-/	.	8g/	.	16gg\	.	.	.	.	.	.	.	.	.	.	.	.	.	.	.	.	.	.	.	.	.	.	8gg\	.
.	.	.	.	.	.	.	.	.	16bb-\JJ	.	.	.	.	.	.	.	.	.	.	.	.	.	.	.	.	.	.	.	.	.	.	.	.
8E-\	.	.	8E-\	.	8B-/	.	8g/	.	16aa-\LL	.	4E-\	-ſe-	.	4B-\	-ſe-	.	4g\	-ſe-	.	4ee-\	-se-	.	.	.	.	.	.	.	.	.	.	8gg\	.
.	.	.	.	.	.	.	.	.	16gg\	.	.	.	.	.	.	.	.	.	.	.	.	.	.	.	.	.	.	.	.	.	.	.	.
8E-\J	.	.	8E-\J	.	8B-/J	.	8g/J	.	16ff\	.	.	.	.	.	.	.	.	.	.	.	.	.	.	.	.	.	.	.	.	.	.	8gg\J	.
.	.	.	.	.	.	.	.	.	16ee-\JJ	.	.	.	.	.	.	.	.	.	.	.	.	.	.	.	.	.	.	.	.	.	.	.	.
!	!	!	!	!	!	!	!	!	!	!	!	!	!	!	!	!	!	!	!	!	!	!	!	!	!	!LO:LB:g=original	!	!LO:LB:g=origianl	!	!	!	!	!
=19	=19	=19	=19	=19	=19	=19	=19	=19	=19	=19	=19	=19	=19	=19	=19	=19	=19	=19	=19	=19	=19	=19	=19	=19	=19	=19	=19	=19	=19	=19	=19	=19	=19
!	!	!	!	!	!	!	!	!	!LO:TX:t=P:problem:mixed beam	!	!	!	!	!	!	!	!	!	!	!	!	!	!	!	!	!	!	!	!	!	!	!	!
8F\L	6	.	8F\L	.	8B-/L	.	8a-/L	.	16dd\LL	.	2F\	-re-	.	2B-\	-re-	.	2a-\	-re-	.	2dd\	-re-	.	2.ryy	2.ryy	2.ryy	2.B-/	.	2.b-\	.	2.dd\	.	8aa-\L	.
.	.	.	.	.	.	.	.	.	16B-/	.	.	.	.	.	.	.	.	.	.	.	.	.	.	.	.	.	.	.	.	.	.	.	.
8F\	.	.	8F\	.	8B-/	.	8a-/	.	16d/	.	.	.	.	.	.	.	.	.	.	.	.	.	.	.	.	.	.	.	.	.	.	8aa-\	.
.	.	.	.	.	.	.	.	.	16f/JJ	.	.	.	.	.	.	.	.	.	.	.	.	.	.	.	.	.	.	.	.	.	.	.	.
8F\	.	.	8F\	.	8B-/	.	8a-/	.	16b-\LL	.	.	.	.	.	.	.	.	.	.	.	.	.	.	.	.	.	.	.	.	.	.	8aa-\	.
.	.	.	.	.	.	.	.	.	16dd\	.	.	.	.	.	.	.	.	.	.	.	.	.	.	.	.	.	.	.	.	.	.	.	.
8F\	.	.	8F\	.	8B-/	.	8a-/	.	16ff\	.	.	.	.	.	.	.	.	.	.	.	.	.	.	.	.	.	.	.	.	.	.	8aa-\	.
.	.	.	.	.	.	.	.	.	16dd\JJ	.	.	.	.	.	.	.	.	.	.	.	.	.	.	.	.	.	.	.	.	.	.	.	.
!	!	!	!	!	!	!	!	!	!	!	!LO:LB:g=original	!	!	!	!	!	!	!	!	!	!	!	!	!	!	!	!	!	!	!	!	!	!
8F\	.	.	8F\	.	8B-/	.	8a-/	.	16bb-\LL	.	4F\	-re	.	4B-\	-re	.	4a-\	-re	.	4dd\	-re	.	.	.	.	.	.	.	.	.	.	8aa-\	.
.	.	.	.	.	.	.	.	.	16ff\	.	.	.	.	.	.	.	.	.	.	.	.	.	.	.	.	.	.	.	.	.	.	.	.
8F\J	.	.	8F\J	.	8B-/J	.	8a-/J	.	16dd\	.	.	.	.	.	.	.	.	.	.	.	.	.	.	.	.	.	.	.	.	.	.	8aa-\J	.
.	.	.	.	.	.	.	.	.	16b-\JJ	.	.	.	.	.	.	.	.	.	.	.	.	.	.	.	.	.	.	.	.	.	.	.	.
=20	=20	=20	=20	=20	=20	=20	=20	=20	=20	=20	=20	=20	=20	=20	=20	=20	=20	=20	=20	=20	=20	=20	=20	=20	=20	=20	=20	=20	=20	=20	=20	=20	=20
*	*	*	*	*	*	*	*	*	*	*	*	*ij	*	*	*	*	*	*	*	*	*	*	*	*	*	*	*	*	*	*	*	*	*
!	!	!	!	!	!	!	!	!	!LO:TX:t=P:problem:mixed beam	!	!	!	!	!	!	!	!	!	!	!	!	!	!	!	!	!	!	!	!	!	!	!	!
8G\L	6	.	8G\L	.	8e-\L	.	8b-\L	.	16ee-\LL	.	2G\	mi-	.	2B-\	mi-	.	2b-\	mi-	.	2ee-\	mi-	.	2.ryy	2.ryy	2.ryy	2.B-/	.	2.b-\	.	2.ee-\	.	8bb-\L	.
.	.	.	.	.	.	.	.	.	16e-/	.	.	.	.	.	.	.	.	.	.	.	.	.	.	.	.	.	.	.	.	.	.	.	.
8G\	.	.	8G\	.	8e-\	.	8b-\	.	16g/	.	.	.	.	.	.	.	.	.	.	.	.	.	.	.	.	.	.	.	.	.	.	8bb-\	.
.	.	.	.	.	.	.	.	.	16b-/JJ	.	.	.	.	.	.	.	.	.	.	.	.	.	.	.	.	.	.	.	.	.	.	.	.
8G\	.	.	8G\	.	8e-\	.	8b-\	.	16ee-\LL	.	.	.	.	.	.	.	.	.	.	.	.	.	.	.	.	.	.	.	.	.	.	8bb-\	.
.	.	.	.	.	.	.	.	.	16b-\	.	.	.	.	.	.	.	.	.	.	.	.	.	.	.	.	.	.	.	.	.	.	.	.
8G\	.	.	8G\	.	8e-\	.	8b-\	.	16ee-\	.	.	.	.	.	.	.	.	.	.	.	.	.	.	.	.	.	.	.	.	.	.	8bb-\	.
.	.	.	.	.	.	.	.	.	16gg\JJ	.	.	.	.	.	.	.	.	.	.	.	.	.	.	.	.	.	.	.	.	.	.	.	.
*	*	*	*	*	*	*	*	*	*custos:bb	*	*	*	*	*	*	*	*	*	*	*	*	*	*	*	*	*	*	*	*	*	*	*	*
!	!	!	!	!	!	!	!	!	!LO:LB:g=original	!	!	!	!	!	!	!	!	!	!	!	!	!	!	!	!	!	!	!	!	!	!	!	!
8G\	.	.	8G\	.	8e-\	.	8b-\	.	16bb-\LL	.	4G\	-ſe-	.	4B-\	-ſe-	.	4g\	-ſe-	.	4ee-\	-se-	.	.	.	.	.	.	.	.	.	.	8bb-\	.
.	.	.	.	.	.	.	.	.	16gg\	.	.	.	.	.	.	.	.	.	.	.	.	.	.	.	.	.	.	.	.	.	.	.	.
8G\J	.	.	8G\J	.	8e-\J	.	8b-\J	.	16ff\	.	.	.	.	.	.	.	.	.	.	.	.	.	.	.	.	.	.	.	.	.	.	8bb-\J	.
.	.	.	.	.	.	.	.	.	16ee-\JJ	.	.	.	.	.	.	.	.	.	.	.	.	.	.	.	.	.	.	.	.	.	.	.	.
*	*	*	*	*	*Xtremolo	*	*	*	*	*	*	*	*	*	*	*	*	*	*	*	*	*	*	*	*	*	*	*	*	*	*	*	*
!	!	!	!	!	!LO:LB:g=original	!	!	!	!	!	!	!	!	!	!	!	!	!	!	!	!	!	!	!	!	!	!	!	!	!	!	!	!
=21	=21	=21	=21	=21	=21	=21	=21	=21	=21	=21	=21	=21	=21	=21	=21	=21	=21	=21	=21	=21	=21	=21	=21	=21	=21	=21	=21	=21	=21	=21	=21	=21	=21
8A-\L	5	.	8A-\L	.	8e-\L	.	8cc\L	.	8cc\L	.	2A-\	-re-	.	2c\	-re-	.	2f\	-re-	.	2cc\	-re-	.	2.ryy	2.ryy	2.ryy	4e-\	.	4e-\	.	4ee-\	.	8ccc\L	.
8A-\	.	.	8A-\	.	8e-\J	.	8cc\	.	8ccc\J	.	.	.	.	.	.	.	.	.	.	.	.	.	.	.	.	.	.	.	.	.	.	8ccc\	.
*	*	*	*	*	*tremolo	*	*	*	*	*	*	*	*	*	*	*	*	*	*	*	*	*	*	*	*	*	*	*	*	*	*	*	*
8A-\	6	.	8A-\	.	8f\L	.	8cc\	.	16r	.	.	.	.	.	.	.	.	.	.	.	.	.	.	.	.	2f\	.	2f\	.	2ff\	.	8ccc\	.
.	.	.	.	.	.	.	.	.	16ff\LL	.	.	.	.	.	.	.	.	.	.	.	.	.	.	.	.	.	.	.	.	.	.	.	.
8A-\	.	.	8A-\	.	8f\	.	8cc\	.	16een\	.	.	.	.	.	.	.	.	.	.	.	.	.	.	.	.	.	.	.	.	.	.	8ccc\	.
.	.	.	.	.	.	.	.	.	16ff\JJ	.	.	.	.	.	.	.	.	.	.	.	.	.	.	.	.	.	.	.	.	.	.	.	.
8A-\	.	.	8A-\	.	8f\	.	8cc\	.	16gg\LL	.	4A-\	-re	.	4c\	-re	.	4f\	-re	.	4cc\	-re	.	.	.	.	.	.	.	.	.	.	8ccc\	.
*	*	*	*	*	*	*	*	*	*	*	*	*Xij	*	*	*Xij	*	*	*Xij	*	*	*Xij	*	*	*	*	*	*	*	*	*	*	*	*
.	.	.	.	.	.	.	.	.	16ff\	.	.	.	.	.	.	.	.	.	.	.	.	.	.	.	.	.	.	.	.	.	.	.	.
8A-\J	.	.	8A-\J	.	8f\J	.	8cc\J	.	16aa-\	.	.	.	.	.	.	.	.	.	.	.	.	.	.	.	.	.	.	.	.	.	.	8ccc\J	.
.	.	.	.	.	.	.	.	.	16ff\JJ	.	.	.	.	.	.	.	.	.	.	.	.	.	.	.	.	.	.	.	.	.	.	.	.
*	*	*	*	*	*Xtremolo	*	*	*	*	*	*	*	*	*	*	*	*	*	*	*	*	*	*	*	*	*	*	*	*	*	*	*Xtremolo	*
!	!	!	!	!	!	!	!	!	!	!	!	!	!	!	!	!	!LO:LB:g=original	!	!	!	!	!	!	!	!	!	!	!	!	!	!	!	!
=22	=22	=22	=22	=22	=22	=22	=22	=22	=22	=22	=22	=22	=22	=22	=22	=22	=22	=22	=22	=22	=22	=22	=22	=22	=22	=22	=22	=22	=22	=22	=22	=22	=22
8B-\L	5 3	.	8B-\L	.	8d\L	.	8f/L	.	16ee-\LL	.	2B-\	mi-	.	2B-\	mi-	.	2f\	no-	.	2dd\	no-	.	2.ryy	2.ryy	2.ryy	2.B-/	.	2.f\	.	8dd\L	.	8ff\L	.
.	.	.	.	.	.	.	.	.	16dd\	.	.	.	.	.	.	.	.	.	.	.	.	.	.	.	.	.	.	.	.	.	.	.	.
8B-\	.	.	8B-\	.	8d\	.	8f/	.	16gg\	.	.	.	.	.	.	.	.	.	.	.	.	.	.	.	.	.	.	.	.	8dd\	.	8ff\	.
.	.	.	.	.	.	.	.	.	16ff\JJ	.	.	.	.	.	.	.	.	.	.	.	.	.	.	.	.	.	.	.	.	.	.	.	.
8B-\	.	.	8B-\	.	8B-\	.	8f/	.	16aa-\LL	.	.	.	.	.	.	.	.	.	.	.	.	.	.	.	.	.	.	.	.	8dd\	.	8ff\	.
.	.	.	.	.	.	.	.	.	16gg\	.	.	.	.	.	.	.	.	.	.	.	.	.	.	.	.	.	.	.	.	.	.	.	.
8B-\J	.	.	8B-\J	.	8B-\	.	8f/	.	16ff\	.	.	.	.	.	.	.	.	.	.	.	.	.	.	.	.	.	.	.	.	8dd\	.	8ff\J	.
.	.	.	.	.	.	.	.	.	16ee-\JJ	.	.	.	.	.	.	.	.	.	.	.	.	.	.	.	.	.	.	.	.	.	.	.	.
*Xtremolo	*	*	*Xtremolo	*	*	*	*	*	*	*	*	*	*	*	*	*	*	*	*	*	*	*	*	*	*	*	*	*	*	*	*	*	*
8D\L	6 5	.	8D\L	.	8d\	.	8f/	.	16dd\LL	.	4D\	-se-	.	4B-\	-ſe-	.	4a-\	-biſ	.	4ff\	-bis	.	.	.	.	.	.	.	.	8ff\	.	8aa-\L	.
.	.	.	.	.	.	.	.	.	16cc\	.	.	.	.	.	.	.	.	.	.	.	.	.	.	.	.	.	.	.	.	.	.	.	.
8D\J	.	.	8D\J	.	8d\J	.	8f/J	.	16b-\	.	.	.	.	.	.	.	.	.	.	.	.	.	.	.	.	.	.	.	.	8ff\J	.	8aa-\J	.
.	.	.	.	.	.	.	.	.	16a-\JJ	.	.	.	.	.	.	.	.	.	.	.	.	.	.	.	.	.	.	.	.	.	.	.	.
*	*	*	*	*	*	*	*Xtremolo	*	*	*	*	*	*	*	*	*	*	*	*	*	*	*	*	*	*	*	*	*	*	*	*	*	*
=23	=23	=23	=23	=23	=23	=23	=23	=23	=23	=23	=23	=23	=23	=23	=23	=23	=23	=23	=23	=23	=23	=23	=23	=23	=23	=23	=23	=23	=23	=23	=23	=23	=23
*	*	*	*	*	*	*	*	*	*	*	*	*	*	*	*	*	*	*	*	*	*	*	*	*	*	*tremolo	*	*tremolo	*	*	*	*	*
8E-\L	3	.	8E-\L	.	8e-\L	.	8g/L	.	16g/LL	.	(4E-\	-re-	.	4B-\	-re-	.	(4g\	mi-	.	2ee-\	mi-	.	2.ryy	2.ryy	2.ryy	8E-/L	.	8e-\L	.	2.ee-\	.	8gg\L	.
.	.	.	.	.	.	.	.	.	16e-/	.	.	.	.	.	.	.	.	.	.	.	.	.	.	.	.	.	.	.	.	.	.	.	.
8E-\J	.	.	8E-\	.	8e-\	.	8g/	.	16f/	.	.	.	.	.	.	.	.	.	.	.	.	.	.	.	.	8E-/	.	8e-\	.	.	.	8gg\	.
.	.	.	.	.	.	.	.	.	16e-/JJ	.	.	.	.	.	.	.	.	.	.	.	.	.	.	.	.	.	.	.	.	.	.	.	.
!LO:LB:g=original	!	!	!	!	!	!	!	!	!	!	!LO:TX:t=P:problem:4F poprawione na 4C	!	!	!	!	!	!	!	!	!	!	!	!	!	!	!	!	!	!	!	!	!	!
8C/L	6	.	8c\	.	8c\	.	8a-/	.	16a-/LL	.	4C\)	.	.	4A-\	.	.	4a-\)	.	.	.	.	.	.	.	.	8E-/	.	8e-\	.	.	.	8aa-\	.
.	.	.	.	.	.	.	.	.	16e-/	.	.	.	.	.	.	.	.	.	.	.	.	.	.	.	.	.	.	.	.	.	.	.	.
8C/	.	.	8c\J	.	8c\	.	8a-/	.	16f/	.	.	.	.	.	.	.	.	.	.	.	.	.	.	.	.	8E-/	.	8e-\	.	.	.	8aa-\	.
.	.	.	.	.	.	.	.	.	16e-/JJ	.	.	.	.	.	.	.	.	.	.	.	.	.	.	.	.	.	.	.	.	.	.	.	.
!	!	!	!LO:LB:g=original	!	!	!	!	!	!	!	!	!	!	!	!	!	!	!	!	!	!	!	!	!	!	!	!	!	!	!	!	!	!
8GG/	6	.	8G\L	.	8d-X\	.	8b-/	.	16b-/LL	.	4G\	-re	.	4B-\	.	.	4b-\	-ſe-	.	4ee-\	-ſe-	.	.	.	.	8E-/	.	8e-\	.	.	.	8bb-\	.
.	.	.	.	.	.	.	.	.	16e-/	.	.	.	.	.	.	.	.	.	.	.	.	.	.	.	.	.	.	.	.	.	.	.	.
8GG/J	.	.	8G\J	.	8d-\J	.	8b-/J	.	16f/	.	.	.	.	.	.	.	.	.	.	.	.	.	.	.	.	8E-/J	.	8e-\J	.	.	.	8bb-\J	.
.	.	.	.	.	.	.	.	.	16e-/JJ	.	.	.	.	.	.	.	.	.	.	.	.	.	.	.	.	.	.	.	.	.	.	.	.
=24	=24	=24	=24	=24	=24	=24	=24	=24	=24	=24	=24	=24	=24	=24	=24	=24	=24	=24	=24	=24	=24	=24	=24	=24	=24	=24	=24	=24	=24	=24	=24	=24	=24
!LO:TX:t=P:problem:mixed beam	!	!	!	!	!	!	!	!	!LO:TX:t=P:problem:mixed beam	!	!	!	!	!	!	!	!	!	!	!	!	!	!	!	!	!	!	!	!	!	!	!	!
8AA-/L	.	.	8A-\L	.	8e-\L	.	8cc\L	.	16cc\LL	.	4A-\	no-	.	4c\	.	.	4a-\	-re-	.	2ee-\	-re-	.	2.ryy	2.ryy	2.ryy	8E-/L	.	8e-\L	.	2.ee-\	.	4ccc\	.
.	.	.	.	.	.	.	.	.	16e-/	.	.	.	.	.	.	.	.	.	.	.	.	.	.	.	.	.	.	.	.	.	.	.	.
8A-\J	.	.	8A-\J	.	8e-\J	.	8cc\J	.	16f/	.	.	.	.	.	.	.	.	.	.	.	.	.	.	.	.	8E-/	.	8e-\	.	.	.	.	.
.	.	.	.	.	.	.	.	.	16e-/JJ	.	.	.	.	.	.	.	.	.	.	.	.	.	.	.	.	.	.	.	.	.	.	.	.
*tremolo	*	*	*tremolo	*	*tremolo	*	*tremolo	*	*	*	*	*	*	*	*	*	*	*	*	*	*	*	*	*	*	*	*	*	*	*	*	*	*
!	!	!	!	!	!	!	!	!	!LO:TX:t=P:problem:mixed beam	!	!	!	!	!	!	!	!	!	!	!	!	!	!	!	!	!	!	!	!	!	!	!	!
8G\L	6 -5	.	8G\L	.	8B-/L	.	8dd-X\L	.	16dd-X\LL	.	2G\	-bis	.	2d-X\	-re	.	2b-\	-re	.	.	.	.	.	.	.	8E-/	.	8e-\	.	.	.	2ddd-X\	.
.	.	.	.	.	.	.	.	.	16e-/	.	.	.	.	.	.	.	.	.	.	.	.	.	.	.	.	.	.	.	.	.	.	.	.
8G\	.	.	8G\	.	8B-/	.	8dd-\	.	16f/	.	.	.	.	.	.	.	.	.	.	.	.	.	.	.	.	8E-/	.	8e-\	.	.	.	.	.
.	.	.	.	.	.	.	.	.	16e-/JJ	.	.	.	.	.	.	.	.	.	.	.	.	.	.	.	.	.	.	.	.	.	.	.	.
!	!	!	!	!	!	!	!	!	!LO:TX:t=P:problem:mixed beam	!	!	!	!	!	!	!	!	!	!	!	!	!	!	!	!	!	!	!	!	!	!	!	!
8G\	.	.	8G\	.	8B-/	.	8dd-\	.	16dd-\LL	.	.	.	.	.	.	.	.	.	.	4ee-\	-re	.	.	.	.	8E-/	.	8e-\	.	.	.	.	.
.	.	.	.	.	.	.	.	.	16e-/	.	.	.	.	.	.	.	.	.	.	.	.	.	.	.	.	.	.	.	.	.	.	.	.
8G\J	.	.	8G\J	.	8B-/J	.	8dd-\J	.	16f/	.	.	.	.	.	.	.	.	.	.	.	.	.	.	.	.	8E-/J	.	8e-\J	.	.	.	.	.
.	.	.	.	.	.	.	.	.	16e-/JJ	.	.	.	.	.	.	.	.	.	.	.	.	.	.	.	.	.	.	.	.	.	.	.	.
*	*	*	*	*	*	*	*Xtremolo	*	*	*	*	*	*	*	*	*	*	*	*	*	*	*	*	*	*	*	*	*	*	*	*	*	*
=25	=25	=25	=25	=25	=25	=25	=25	=25	=25	=25	=25	=25	=25	=25	=25	=25	=25	=25	=25	=25	=25	=25	=25	=25	=25	=25	=25	=25	=25	=25	=25	=25	=25
!	!	!	!	!	!	!	!LO:TX:t=P:problem:mixed beam	!	!	!	!	!	!	!	!	!	!	!	!	!	!	!	!	!	!	!	!	!	!	!	!	!	!
8A-\L	.	.	8A-\L	.	8A-/L	.	8cc\L	.	16cc\LL	.	2.A-\	no-	.	2.c\	no-	.	2.a-\	no-	.	2.ee-\	no-	.	2.ryy	2.ryy	2.ryy	8E-/L	.	8e-\L	.	2.ee-\	.	2.ccc\	.
.	.	.	.	.	.	.	.	.	16cc\	.	.	.	.	.	.	.	.	.	.	.	.	.	.	.	.	.	.	.	.	.	.	.	.
8A-\	.	.	8A-\	.	8A-/	.	8e-/	.	16bn\	.	.	.	.	.	.	.	.	.	.	.	.	.	.	.	.	8E-/	.	8e-\	.	.	.	.	.
.	.	.	.	.	.	.	.	.	16cc\JJ	.	.	.	.	.	.	.	.	.	.	.	.	.	.	.	.	.	.	.	.	.	.	.	.
8A-\	.	.	8A-\	.	8A-/	.	8e-/	.	16dd\LL	.	.	.	.	.	.	.	.	.	.	.	.	.	.	.	.	8E-/	.	8e-\	.	.	.	.	.
.	.	.	.	.	.	.	.	.	16cc\	.	.	.	.	.	.	.	.	.	.	.	.	.	.	.	.	.	.	.	.	.	.	.	.
8A-\	.	.	8A-\	.	8A-/	.	8e-/	.	16b\	.	.	.	.	.	.	.	.	.	.	.	.	.	.	.	.	8E-/	.	8e-\	.	.	.	.	.
.	.	.	.	.	.	.	.	.	16cc\JJ	.	.	.	.	.	.	.	.	.	.	.	.	.	.	.	.	.	.	.	.	.	.	.	.
!	!	!	!	!	!	!	!	!	!LO:LB:g=original	!	!	!	!	!	!	!	!	!	!	!	!	!	!	!	!	!	!	!	!	!	!	!	!
8A-\	.	.	8A-\	.	8A-/	.	8e-/	.	16bnX\LL	.	.	.	.	.	.	.	.	.	.	.	.	.	.	.	.	8E-/	.	8e-\	.	.	.	.	.
.	.	.	.	.	.	.	.	.	16cc\	.	.	.	.	.	.	.	.	.	.	.	.	.	.	.	.	.	.	.	.	.	.	.	.
8A-\J	.	.	8A-\J	.	8A-/J	.	8e-/J	.	16ee-\	.	.	.	.	.	.	.	.	.	.	.	.	.	.	.	.	8E-/J	.	8e-\J	.	.	.	.	.
.	.	.	.	.	.	.	.	.	16cc\JJ	.	.	.	.	.	.	.	.	.	.	.	.	.	.	.	.	.	.	.	.	.	.	.	.
*Xtremolo	*	*	*Xtremolo	*	*Xtremolo	*	*	*	*	*	*	*	*	*	*	*	*	*	*	*	*	*	*	*	*	*Xtremolo	*	*Xtremolo	*	*	*	*	*
=26	=26	=26	=26	=26	=26	=26	=26	=26	=26	=26	=26	=26	=26	=26	=26	=26	=26	=26	=26	=26	=26	=26	=26	=26	=26	=26	=26	=26	=26	=26	=26	=26	=26
!LO:TX:t=P:problem:mixed beam	!	!	!LO:TX:t=P:problem:mixed beam	!	!	!	!	!	!	!	!	!	!	!	!	!	!	!	!	!	!	!	!	!	!	!	!	!	!	!	!	!	!
8G\L	6 3	.	8G\L	.	8G/L	.	8e-/L	.	16b-X/LL	.	8G\L	.	.	8B-X\L	.	.	8g\L	.	.	2ee-\	.	.	2.ryy	2.ryy	2.ryy	4E-/	.	8e-\L	.	8ee-\L	.	8bb-\L	.
.	.	.	.	.	.	.	.	.	16g/	.	.	.	.	.	.	.	.	.	.	.	.	.	.	.	.	.	.	.	.	.	.	.	.
8A-\	3	.	8A-\	.	8A-/J	.	8e-/	.	16cc/	.	8A-\J	.	.	8c\J	.	.	8a-\J	.	.	.	.	.	.	.	.	.	.	8e-\J	.	8ee-\J	.	16ccc\L	.
.	.	.	.	.	.	.	.	.	16a-/JJ	.	.	.	.	.	.	.	.	.	.	.	.	.	.	.	.	.	.	.	.	.	.	16aa-\JJ	.
*	*	*	*	*	*tremolo	*	*	*	*	*	*	*	*	*	*	*	*	*	*	*	*	*	*	*	*	*	*	*	*	*	*	*	*
8B-\	4	.	8B-\	.	8B-/L	.	8e-/	.	4g/	.	4B-\	.	.	2B-\	.	.	4g\	.	.	.	.	.	.	.	.	4e-\	.	4g\	.	4ee-\	.	4gg\	.
8B-\	.	.	8B-\	.	8B-/	.	8e-/	.	.	.	.	.	.	.	.	.	.	.	.	.	.	.	.	.	.	.	.	.	.	.	.	.	.
8BB-/	3	.	8BB-/	.	8B-/	.	8d/	.	4fT/	.	4BB-/	.	.	.	.	.	4f\	.	.	4dd\	.	.	.	.	.	4B-/	.	4f\	.	4dd\	.	4ff\	.
8BB-/J	.	.	8BB-/J	.	8B-/J	.	8d/J	.	.	.	.	.	.	.	.	.	.	.	.	.	.	.	.	.	.	.	.	.	.	.	.	.	.
*	*	*	*	*	*Xtremolo	*	*	*	*	*	*	*	*	*	*	*	*	*	*	*	*	*	*	*	*	*	*	*	*	*	*	*	*
=27	=27	=27	=27	=27	=27	=27	=27	=27	=27	=27	=27	=27	=27	=27	=27	=27	=27	=27	=27	=27	=27	=27	=27	=27	=27	=27	=27	=27	=27	=27	=27	=27	=27
!	!	!LO:DY:a:t=pp.	!	!LO:DY:a:t=p.	!	!LO:DY:a:t=p.	!	!LO:DY:a:t=p.	!LO:TX:t=P:problem:mixed beam	!LO:DY:a:t=p&colon;	!	!	!	!	!	!	!	!	!	!	!	!	!	!	!	!	!	!	!	!	!	!	!
8E-\	.	pp	8E-\	p	4e-\	p	8e-/L	p	8e-/L	p	4E-\	-bis	.	4B-\	-bis	.	4g\	-bis	.	4ee-\	-biſ	.	2.ryy	2.ryy	2.ryy	4G/	.	4e-\	.	4ee-\	.	4ee-\	.
8r	.	.	8r	.	.	.	8g/J	.	8ee-\J	.	.	.	.	.	.	.	.	.	.	.	.	.	.	.	.	.	.	.	.	.	.	.	.
8E-\	.	.	8E-\	.	8r	.	8r	.	16r	.	4r	.	.	4r	.	.	4r	.	.	4r	.	.	.	.	.	4r	.	4r	.	4r	.	4r	.
.	.	.	.	.	.	.	.	.	16gg\LL	.	.	.	.	.	.	.	.	.	.	.	.	.	.	.	.	.	.	.	.	.	.	.	.
8r	.	.	8r	.	8e-\	.	8g/	.	16aa-\	.	.	.	.	.	.	.	.	.	.	.	.	.	.	.	.	.	.	.	.	.	.	.	.
.	.	.	.	.	.	.	.	.	16bb-\JJ	.	.	.	.	.	.	.	.	.	.	.	.	.	.	.	.	.	.	.	.	.	.	.	.
8B-\	7	.	8B-\	.	8r	.	8r	.	8.bb-\L	.	4r	.	.	4r	.	.	4r	.	.	4r	.	.	.	.	.	4r	.	4r	.	4r	.	4r	.
8r	.	.	8r	.	8f\	.	8a-/	.	.	.	.	.	.	.	.	.	.	.	.	.	.	.	.	.	.	.	.	.	.	.	.	.	.
.	.	.	.	.	.	.	.	.	16dd\Jk	.	.	.	.	.	.	.	.	.	.	.	.	.	.	.	.	.	.	.	.	.	.	.	.
!	!	!	!	!	!	!	!	!	!	!	!	!	!	!	!	!	!	!	!	!LO:LB:g=original	!	!	!	!	!	!	!	!	!	!	!	!	!
=28	=28	=28	=28	=28	=28	=28	=28	=28	=28	=28	=28	=28	=28	=28	=28	=28	=28	=28	=28	=28	=28	=28	=28	=28	=28	=28	=28	=28	=28	=28	=28	=28	=28
.	.	.	.	.	.	.	.	.	8qff/	.	.	.	.	.	.	.	.	.	.	.	.	.	.	.	.	.	.	.	.	.	.	.	.
!	!	!	!	!	!	!	!	!	!	!	!LO:N:vis=00	!	!	!LO:N:vis=00	!	!	!LO:N:vis=0	!	!	!LO:N:vis=00	!	!	!	!	!	!LO:N:vis=00	!	!LO:N:vis=00	!	!LO:N:vis=00	!	!LO:N:vis=00	!
8c\	.	.	8c\	.	8r	.	8r	.	8ee-\L	.	0.r	.	.	0.r	.	.	1.r	.	.	0.r	.	.	2.ryy	2.ryy	2.ryy	0.r	.	0.r	.	0.r	.	0.r	.
8r	.	.	8r	.	8e-\	.	8g/	.	8ee-\J	.	.	.	.	.	.	.	.	.	.	.	.	.	.	.	.	.	.	.	.	.	.	.	.
8C/	.	.	8C/	.	8r	.	8r	.	16r	.	.	.	.	.	.	.	.	.	.	.	.	.	.	.	.	.	.	.	.	.	.	.	.
.	.	.	.	.	.	.	.	.	16ee-\LL	.	.	.	.	.	.	.	.	.	.	.	.	.	.	.	.	.	.	.	.	.	.	.	.
8r	.	.	8r	.	8e-\	.	8g/	.	16ff\	.	.	.	.	.	.	.	.	.	.	.	.	.	.	.	.	.	.	.	.	.	.	.	.
.	.	.	.	.	.	.	.	.	16gg\JJ	.	.	.	.	.	.	.	.	.	.	.	.	.	.	.	.	.	.	.	.	.	.	.	.
8G\	7	.	8G\	.	8r	.	8r	.	8.gg\L	.	.	.	.	.	.	.	.	.	.	.	.	.	.	.	.	.	.	.	.	.	.	.	.
8r	.	.	8r	.	8d\	.	8f/	.	.	.	.	.	.	.	.	.	.	.	.	.	.	.	.	.	.	.	.	.	.	.	.	.	.
.	.	.	.	.	.	.	.	.	16bn\Jk	.	.	.	.	.	.	.	.	.	.	.	.	.	.	.	.	.	.	.	.	.	.	.	.
!	!	!	!	!	!	!	!LO:LB:g=original	!	!	!	!	!	!	!	!	!	!	!	!	!	!	!	!	!	!	!	!	!	!	!	!	!	!
=29	=29	=29	=29	=29	=29	=29	=29	=29	=29	=29	=29	=29	=29	=29	=29	=29	=29	=29	=29	=29	=29	=29	=29	=29	=29	=29	=29	=29	=29	=29	=29	=29	=29
8A-\	.	.	8A-\	.	8r	.	8r	.	8cc\L	.	.	.	.	.	.	.	.	.	.	.	.	.	2.ryy	2.ryy	2.ryy	.	.	.	.	.	.	.	.
8r	.	.	8r	.	8c\	.	8e-/	.	8cc\J	.	.	.	.	.	.	.	.	.	.	.	.	.	.	.	.	.	.	.	.	.	.	.	.
8AA-/	.	.	8A-\	.	8r	.	8r	.	16r	.	.	.	.	.	.	.	.	.	.	.	.	.	.	.	.	.	.	.	.	.	.	.	.
.	.	.	.	.	.	.	.	.	16cc\LL	.	.	.	.	.	.	.	.	.	.	.	.	.	.	.	.	.	.	.	.	.	.	.	.
8r	.	.	8r	.	8c\	.	8e-/	.	16dd\	.	.	.	.	.	.	.	.	.	.	.	.	.	.	.	.	.	.	.	.	.	.	.	.
.	.	.	.	.	.	.	.	.	16ee-\JJ	.	.	.	.	.	.	.	.	.	.	.	.	.	.	.	.	.	.	.	.	.	.	.	.
8G 8E-\	6	.	8G\	.	8r	.	8r	.	16ee-\LL	.	.	.	.	.	.	.	.	.	.	.	.	.	.	.	.	.	.	.	.	.	.	.	.
.	.	.	.	.	.	.	.	.	16dd\	.	.	.	.	.	.	.	.	.	.	.	.	.	.	.	.	.	.	.	.	.	.	.	.
8r	.	.	8r	.	8B-/	.	8e-/	.	16cc\	.	.	.	.	.	.	.	.	.	.	.	.	.	.	.	.	.	.	.	.	.	.	.	.
.	.	.	.	.	.	.	.	.	16b-\JJ	.	.	.	.	.	.	.	.	.	.	.	.	.	.	.	.	.	.	.	.	.	.	.	.
=30	=30	=30	=30	=30	=30	=30	=30	=30	=30	=30	=30	=30	=30	=30	=30	=30	=30	=30	=30	=30	=30	=30	=30	=30	=30	=30	=30	=30	=30	=30	=30	=30	=30
*	*	*	*	*	*	*	*tremolo	*	*	*	*	*	*	*	*	*	*	*	*	*	*	*	*	*	*	*	*	*	*	*	*	*	*
!LO:TX:t=P:problem:mixed beam	!	!	!LO:TX:t=P:problem:mixed beam	!	!	!	!	!	!	!	!	!	!	!	!	!	!	!	!	!	!	!	!	!	!	!	!	!	!	!	!	!	!
8A-\L	5	.	8A-\L	.	8c/L	.	8e-/L	.	16cc/LL	.	.	.	.	.	.	.	2.r	.	.	.	.	.	2.ryy	2.ryy	2.ryy	.	.	.	.	.	.	.	.
.	.	.	.	.	.	.	.	.	16g/	.	.	.	.	.	.	.	.	.	.	.	.	.	.	.	.	.	.	.	.	.	.	.	.
8A-\	.	.	8A-\	.	8c/J	.	8e-/	.	16a-/	.	.	.	.	.	.	.	.	.	.	.	.	.	.	.	.	.	.	.	.	.	.	.	.
.	.	.	.	.	.	.	.	.	16f/JJ	.	.	.	.	.	.	.	.	.	.	.	.	.	.	.	.	.	.	.	.	.	.	.	.
8B-\	4	.	8B-\	.	8G/L	.	8e-/	.	4e-/	.	.	.	.	.	.	.	.	.	.	.	.	.	.	.	.	.	.	.	.	.	.	.	.
8B-\	.	.	8B-\	.	8G/	.	8e-/J	.	.	.	.	.	.	.	.	.	.	.	.	.	.	.	.	.	.	.	.	.	.	.	.	.	.
*	*	*	*	*	*	*	*Xtremolo	*	*	*	*	*	*	*	*	*	*	*	*	*	*	*	*	*	*	*	*	*	*	*	*	*	*
8BB-/	3	.	8BB-/	.	8B-/	.	8A-/L	.	4dt/	.	.	.	.	.	.	.	.	.	.	.	.	.	.	.	.	.	.	.	.	.	.	.	.
8BB-/J	.	.	8BB-/J	.	8B-/J	.	8A-/J	.	.	.	.	.	.	.	.	.	.	.	.	.	.	.	.	.	.	.	.	.	.	.	.	.	.
!	!	!	!	!	!LO:LB:g=origianl	!	!	!	!	!	!	!	!	!	!	!	!	!	!	!	!	!	!	!	!	!	!	!	!	!	!	!	!
=31	=31	=31	=31	=31	=31	=31	=31	=31	=31	=31	=31	=31	=31	=31	=31	=31	=31	=31	=31	=31	=31	=31	=31	=31	=31	=31	=31	=31	=31	=31	=31	=31	=31
!LO:TX:t=P:problem:mixed beam	!	!	!LO:TX:t=P:problem:mixed beam	!	!	!	!	!	!	!	!	!	!	!	!	!	!	!	!	!	!	!	!	!	!	!	!	!	!	!	!	!	!
8E-\L	.	.	8E-\L	.	8G/L	.	4G/	.	4e-/	.	.	.	.	.	.	.	4r	.	.	.	.	.	2.ryy	2.ryy	2.ryy	.	.	.	.	.	.	.	.
8BB-/J	.	.	8BB-/J	.	8B-/J	.	.	.	.	.	.	.	.	.	.	.	.	.	.	.	.	.	.	.	.	.	.	.	.	.	.	.	.
!	!	!	!	!	!	!	!	!	!LO:TX:t=P:problem:8r poprawione na 4r	!	!	!	!	!	!	!	!	!	!	!	!	!	!	!	!	!	!	!	!	!	!	!	!
4EE-/	.	.	4EE-/	.	4G/	.	4r	.	4r	.	.	.	.	.	.	.	4r	.	.	.	.	.	.	.	.	.	.	.	.	.	.	.	.
4r	.	.	4r	.	4r	.	4r	.	8r	.	.	.	.	.	.	.	8r	.	.	.	.	.	.	.	.	.	.	.	.	.	.	.	.
.	.	.	.	.	.	.	.	.	8ee-\	.	.	.	.	.	.	.	8e-\	qui	.	.	.	.	.	.	.	.	.	.	.	.	.	.	.
!	!	!	!	!	!	!	!	!	!LO:LB:g=original	!	!	!	!	!LO:PB:g=original	!	!	!	!	!	!	!	!	!	!	!	!	!	!	!	!	!	!	!
=32	=32	=32	=32	=32	=32	=32	=32	=32	=32	=32	=32	=32	=32	=32	=32	=32	=32	=32	=32	=32	=32	=32	=32	=32	=32	=32	=32	=32	=32	=32	=32	=32	=32
!	!	!	!	!	!	!	!	!	!	!	!LO:N:vis=0	!	!	!	!	!	!	!	!	!LO:N:vis=0	!	!	!	!	!	!	!LO:DY:a:t=p.	!	!LO:DY:a:t=p.	!LO:N:vis=0	!	!LO:N:vis=0	!
4E-\	.	.	4E-\	.	8.G/L	.	8.e-/L	.	8.ee-\L	.	1.r	.	.	4r	.	.	8.e-\L	tol-	.	1.r	.	.	2.ryy	2.ryy	2.ryy	8.G/L	p	8.e-\L	p	1.r	.	1.r	.
.	.	.	.	.	16B-/kJ	.	16d/kJ	.	16ff\kJ	.	.	.	.	.	.	.	16f\Jk	.	.	.	.	.	.	.	.	16B-/kJ	.	16f\k	.	.	.	.	.
*	*	*	*	*	*	*	*tremolo	*	*	*	*	*	*	*	*	*	*	*	*	*	*	*	*	*	*	*tremolo	*	*	*	*	*	*	*
4EE-/	.	.	4EE-/	.	8e-\L	.	8e-/L	.	8gg\L	.	.	.	.	4r	.	.	4g\	-lis	.	.	.	.	.	.	.	8e-\L	.	8g\	.	.	.	.	.
.	.	.	.	.	8g\	.	8e-/	.	8gg\	.	.	.	.	.	.	.	.	.	.	.	.	.	.	.	.	8e-\	.	8g\	.	.	.	.	.
!	!	!	!LO:LB:g=original	!	!	!	!	!	!	!	!	!	!	!	!	!	!	!	!	!	!	!	!	!	!	!	!	!	!	!	!	!	!
4r	.	.	4r	.	8g\	.	8e-/	.	8gg\	.	.	.	.	8r	.	.	8r	.	.	.	.	.	.	.	.	8e-\	.	8g\	.	.	.	.	.
!	!	!	!	!	!	!	!	!	!	!	!	!	!	!	!	!LO:DY:a:rj:t=p.	!	!	!	!	!	!	!	!	!	!	!	!	!	!	!	!	!
.	.	.	.	.	8g\J	.	8e-/J	.	8gg\J	.	.	.	.	8e-\	Qui	p	8g\	pec-	.	.	.	.	.	.	.	8e-\J	.	8g\J	.	.	.	.	.
*	*	*	*	*	*	*	*Xtremolo	*	*	*	*	*	*	*	*	*	*	*	*	*	*	*	*	*	*	*Xtremolo	*	*	*	*	*	*	*
=33	=33	=33	=33	=33	=33	=33	=33	=33	=33	=33	=33	=33	=33	=33	=33	=33	=33	=33	=33	=33	=33	=33	=33	=33	=33	=33	=33	=33	=33	=33	=33	=33	=33
4E-\	.	.	4E-\	.	8.g\L	.	8.e-/L	.	8.gg\L	.	.	.	.	8.e-\L	tol-	.	8.g\L	-ca-	.	.	.	.	2.ryy	2.ryy	2.ryy	8.e-\L	.	8.g\L	.	.	.	.	.
.	.	.	.	.	16a-\Jk	.	16f/Jk	.	16aa-\Jk	.	.	.	.	16f\Jk	.	.	16a-\Jk	.	.	.	.	.	.	.	.	16f\Jk	.	16a-\Jk	.	.	.	.	.
4EE-/	.	.	4EE-/	.	4b-\	.	4g/	.	16bb-\LL	.	.	.	.	4g\	-lis	.	4b-\	-ta	.	.	.	.	.	.	.	4g\	.	4b-\	.	.	.	.	.
.	.	.	.	.	.	.	.	.	16bb-\	.	.	.	.	.	.	.	.	.	.	.	.	.	.	.	.	.	.	.	.	.	.	.	.
.	.	.	.	.	.	.	.	.	16ccc\	.	.	.	.	.	.	.	.	.	.	.	.	.	.	.	.	.	.	.	.	.	.	.	.
.	.	.	.	.	.	.	.	.	16bb-\JJ	.	.	.	.	.	.	.	.	.	.	.	.	.	.	.	.	.	.	.	.	.	.	.	.
!LO:LB:g=original	!	!	!	!	!	!	!	!	!	!	!	!	!	!	!	!	!	!	!	!	!	!	!	!	!	!	!	!	!	!	!	!	!
4r	.	.	4r	.	4r	.	4r	.	16aa-\LL	.	.	.	.	4r	.	.	4r	.	.	.	.	.	.	.	.	4r	.	4r	.	.	.	.	.
.	.	.	.	.	.	.	.	.	16gg\	.	.	.	.	.	.	.	.	.	.	.	.	.	.	.	.	.	.	.	.	.	.	.	.
.	.	.	.	.	.	.	.	.	16ff\	.	.	.	.	.	.	.	.	.	.	.	.	.	.	.	.	.	.	.	.	.	.	.	.
.	.	.	.	.	.	.	.	.	16ee-\JJ	.	.	.	.	.	.	.	.	.	.	.	.	.	.	.	.	.	.	.	.	.	.	.	.
=34	=34	=34	=34	=34	=34	=34	=34	=34	=34	=34	=34	=34	=34	=34	=34	=34	=34	=34	=34	=34	=34	=34	=34	=34	=34	=34	=34	=34	=34	=34	=34	=34	=34
*tremolo	*	*	*tremolo	*	*tremolo	*	*tremolo	*	*	*	*	*	*	*	*	*	*	*	*	*	*	*	*	*	*	*	*	*	*	*	*	*	*
!LO:TX:a:rj:t=Tutti	!	!	!	!LO:DY:a:rj:t=ff&colon;	!	!	!	!LO:DY:a:rj:t=for&colon;	!	!LO:DY:a:rj:t=ffor.	!	!	!	!	!	!LO:DY:a:t=ff.	!	!	!LO:DY:a:t=ff.	!	!	!LO:DY:a:t=ff.	!	!	!	!	!	!	!	!	!LO:DY:a:rj:t=ffor&colon;	!	!LO:DY:a:rj:t=ffor&colon;
8E-\L	6	.	8E-\L	ff	8e-\L	.	8gg\L	f	2ccc\	ff	8r	.	.	8r	.	ff	8r	.	ff	8r	.	ff	2.ryy	2.ryy	2.ryy	2e-\	.	2g\	.	2gg\	ff	2ccc\	ff
8E-\	.	.	8E-\	.	8e-\	.	8gg\	.	.	.	8E-\	pec-	.	8e-\	pec-	.	8g\	pec-	.	8cc\	pec-	.	.	.	.	.	.	.	.	.	.	.	.
8E-\	.	.	8E-\	.	8e-\	.	8gg\	.	.	.	4E-\	-ca-	.	4e-\	-ca-	.	4g\	-ca-	.	4cc\	-ca-	.	.	.	.	.	.	.	.	.	.	.	.
8E-\J	.	.	8E-\	.	8e-\	.	8gg\	.	.	.	.	.	.	.	.	.	.	.	.	.	.	.	.	.	.	.	.	.	.	.	.	.	.
*Xtremolo	*	*	*	*	*	*	*	*	*	*	*	*	*	*	*	*	*	*	*	*	*	*	*	*	*	*	*	*	*	*	*	*	*
8E-\L	5	.	8E-\	.	8e-\	.	8gg\	.	4bb-\	.	4E-\	-ta	.	4e-\	-ta	.	4g\	-ta	.	4b-\	-ta	.	.	.	.	4e-\	.	4g\	.	4gg\	.	4bb-\	.
8E-\J	.	.	8E-\J	.	8e-\J	.	8gg\J	.	.	.	.	.	.	.	.	.	.	.	.	.	.	.	.	.	.	.	.	.	.	.	.	.	.
*	*	*	*Xtremolo	*	*Xtremolo	*	*Xtremolo	*	*	*	*	*	*	*	*	*	*	*	*	*	*	*	*	*	*	*	*	*	*	*	*	*	*
!	!	!	!	!	!	!	!	!	!	!	!	!	!	!	!	!	!LO:LB:g=original	!	!	!	!	!	!	!	!	!	!	!	!	!	!	!	!
=35	=35	=35	=35	=35	=35	=35	=35	=35	=35	=35	=35	=35	=35	=35	=35	=35	=35	=35	=35	=35	=35	=35	=35	=35	=35	=35	=35	=35	=35	=35	=35	=35	=35
4E-\	n4 -	.	4E-\	.	4c\	.	4gg-X\	.	8.aant\L	.	4E-\	mun-	.	4c\	mun-	.	4g-X\	mun-	.	4an\	mun-	.	2.ryy	2.ryy	2.ryy	4e-\	.	4e-\	.	4gg-X\	.	4aan\	.
.	.	.	.	.	.	.	.	.	32gg\LL	.	.	.	.	.	.	.	.	.	.	.	.	.	.	.	.	.	.	.	.	.	.	.	.
.	.	.	.	.	.	.	.	.	32aa\JJJ	.	.	.	.	.	.	.	.	.	.	.	.	.	.	.	.	.	.	.	.	.	.	.	.
4D\	6	.	4D\	.	4d\	.	4ff\	.	4bb-\	.	4D\	-di	.	4B-\	-di	.	4f\	-di	.	4b-\	-di	.	.	.	.	4B-/	.	4f\	.	4ff\	.	4bb-\	.
!	!	!	!	!	!	!	!	!	!	!	!LO:LB:g=original	!	!	!	!	!	!	!	!	!	!	!	!	!	!	!	!	!	!	!LO:LB:g=original	!	!	!
4r	.	.	4r	.	4r	.	4r	.	4r	.	4r	.	.	4r	.	.	4r	.	.	4r	.	.	.	.	.	4r	.	4r	.	4r	.	4r	.
=36	=36	=36	=36	=36	=36	=36	=36	=36	=36	=36	=36	=36	=36	=36	=36	=36	=36	=36	=36	=36	=36	=36	=36	=36	=36	=36	=36	=36	=36	=36	=36	=36	=36
!	!	!LO:DY:a:rj:t=pp.	!	!LO:DY:a:t=p.	!	!LO:DY:a:t=pp.	!	!LO:DY:a:t=p.	!	!	!LO:N:vis=0	!	!	!LO:N:vis=0	!	!	!LO:N:vis=0	!	!	!LO:N:vis=0	!	!	!	!	!	!LO:N:vis=00	!	!LO:N:vis=00	!	!LO:N:vis=0	!	!LO:N:vis=0	!
8D-X\	6_	pp	8D-X\	p	8d-X\	pp	8f/	p	16r	.	1.r	.	.	1.r	.	.	1.r	.	.	1.r	.	.	2.ryy	2.ryy	2.ryy	0.r	.	0.r	.	1.r	.	1.r	.
!	!	!	!	!	!	!	!	!	!	!LO:DY:a:t=p.	!	!	!	!	!	!	!	!	!	!	!	!	!	!	!	!	!	!	!	!	!	!	!
.	.	.	.	.	.	.	.	.	16b-\LL	p	.	.	.	.	.	.	.	.	.	.	.	.	.	.	.	.	.	.	.	.	.	.	.
8r	.	.	8r	.	8r	.	8r	.	16cc\	.	.	.	.	.	.	.	.	.	.	.	.	.	.	.	.	.	.	.	.	.	.	.	.
.	.	.	.	.	.	.	.	.	16b-\JJ	.	.	.	.	.	.	.	.	.	.	.	.	.	.	.	.	.	.	.	.	.	.	.	.
8D-\	_	.	8D-\	.	8d-\	.	8f/	.	16r	.	.	.	.	.	.	.	.	.	.	.	.	.	.	.	.	.	.	.	.	.	.	.	.
.	.	.	.	.	.	.	.	.	16b-\LL	.	.	.	.	.	.	.	.	.	.	.	.	.	.	.	.	.	.	.	.	.	.	.	.
8r	X	.	8r	.	8r	.	8r	.	16cc\	.	.	.	.	.	.	.	.	.	.	.	.	.	.	.	.	.	.	.	.	.	.	.	.
.	.	.	.	.	.	.	.	.	16b-\JJ	.	.	.	.	.	.	.	.	.	.	.	.	.	.	.	.	.	.	.	.	.	.	.	.
8D-\	.	.	8D-\	.	8d-\	.	8f/	.	16r	.	.	.	.	.	.	.	.	.	.	.	.	.	.	.	.	.	.	.	.	.	.	.	.
.	.	.	.	.	.	.	.	.	16b-\LL	.	.	.	.	.	.	.	.	.	.	.	.	.	.	.	.	.	.	.	.	.	.	.	.
8r	.	.	8r	.	8r	.	8r	.	16cc\	.	.	.	.	.	.	.	.	.	.	.	.	.	.	.	.	.	.	.	.	.	.	.	.
.	.	.	.	.	.	.	.	.	16b-\JJ	.	.	.	.	.	.	.	.	.	.	.	.	.	.	.	.	.	.	.	.	.	.	.	.
=37	=37	=37	=37	=37	=37	=37	=37	=37	=37	=37	=37	=37	=37	=37	=37	=37	=37	=37	=37	=37	=37	=37	=37	=37	=37	=37	=37	=37	=37	=37	=37	=37	=37
8D-X\	-7_ 3_	.	8D-X\	.	8A-X/	.	8f/	.	16r	.	.	.	.	.	.	.	.	.	.	.	.	.	2.ryy	2.ryy	2.ryy	.	.	.	.	.	.	.	.
.	.	.	.	.	.	.	.	.	16cc-X\LL	.	.	.	.	.	.	.	.	.	.	.	.	.	.	.	.	.	.	.	.	.	.	.	.
8r	.	.	8r	.	8r	.	8r	.	16dd-X\	.	.	.	.	.	.	.	.	.	.	.	.	.	.	.	.	.	.	.	.	.	.	.	.
.	.	.	.	.	.	.	.	.	16cc-\JJ	.	.	.	.	.	.	.	.	.	.	.	.	.	.	.	.	.	.	.	.	.	.	.	.
8D-\	.	.	8D-\	.	8A-/	.	8f/	.	16r	.	.	.	.	.	.	.	.	.	.	.	.	.	.	.	.	.	.	.	.	.	.	.	.
.	.	.	.	.	.	.	.	.	16cc-\LL	.	.	.	.	.	.	.	.	.	.	.	.	.	.	.	.	.	.	.	.	.	.	.	.
8r	.	.	8r	.	8r	.	8r	.	16dd-\	.	.	.	.	.	.	.	.	.	.	.	.	.	.	.	.	.	.	.	.	.	.	.	.
.	.	.	.	.	.	.	.	.	16cc-\JJ	.	.	.	.	.	.	.	.	.	.	.	.	.	.	.	.	.	.	.	.	.	.	.	.
!	!	!	!	!	!	!	!	!	!LO:LB:g=original	!	!	!	!	!	!	!	!	!	!	!	!	!	!	!	!	!	!	!	!	!	!	!	!
8D-\	.	.	8D-\	.	8A-/	.	8f/	.	16r	.	.	.	.	.	.	.	.	.	.	.	.	.	.	.	.	.	.	.	.	.	.	.	.
.	.	.	.	.	.	.	.	.	16cc-X\LL	.	.	.	.	.	.	.	.	.	.	.	.	.	.	.	.	.	.	.	.	.	.	.	.
8r	X X	.	8r	.	8r	.	8r	.	16dd-X\	.	.	.	.	.	.	.	.	.	.	.	.	.	.	.	.	.	.	.	.	.	.	.	.
.	.	.	.	.	.	.	.	.	16cc-\JJ	.	.	.	.	.	.	.	.	.	.	.	.	.	.	.	.	.	.	.	.	.	.	.	.
!	!	!	!	!	!	!	!	!	!	!	!	!	!	!	!	!	!	!	!	!	!	!	!	!	!	!	!	!	!	!	!	!LO:LB:g=original	!
=38	=38	=38	=38	=38	=38	=38	=38	=38	=38	=38	=38	=38	=38	=38	=38	=38	=38	=38	=38	=38	=38	=38	=38	=38	=38	=38	=38	=38	=38	=38	=38	=38	=38
*tremolo	*	*	*tremolo	*	*tremolo	*	*tremolo	*	*	*	*	*	*	*	*	*	*	*	*	*	*	*	*	*	*	*	*	*	*	*	*	*	*
!	!	!LO:DY:a:t=ffor&colon;	!	!LO:DY:a:t=ffor&colon;	!	!LO:DY:a:t=ff.	!	!LO:DY:a:t=ffor&colon;	!	!LO:DY:a:t=ffor&colon;	!	!	!	!	!	!	!	!	!	!	!	!LO:DY:a:t=ff.	!	!	!	!	!	!	!	!	!LO:DY:a:rj:t=ffor&colon;	!	!LO:DY:a:rj:t=ffor&colon;
8G-X\L	.	ff	8G-X\L	ff	8B-/L	ff	8d-X/L	ff	16b-/LL	ff	4.G-X\	ſus-	.	4.d-X\	Sus-	.	4.g-X\	Sus-	.	4.b-\	Sus-	ff	2.ryy	2.ryy	2.ryy	.	.	.	.	2.b-\	ff	2.dd-X\	ff
.	.	.	.	.	.	.	.	.	16d-X/	.	.	.	.	.	.	.	.	.	.	.	.	.	.	.	.	.	.	.	.	.	.	.	.
8G-\	.	.	8G-\	.	8B-/	.	8d-/	.	16e-/	.	.	.	.	.	.	.	.	.	.	.	.	.	.	.	.	.	.	.	.	.	.	.	.
.	.	.	.	.	.	.	.	.	16d-/JJ	.	.	.	.	.	.	.	.	.	.	.	.	.	.	.	.	.	.	.	.	.	.	.	.
8G-\	.	.	8G-\	.	8B-/	.	8d-/	.	16b-/LL	.	.	.	.	.	.	.	.	.	.	.	.	.	.	.	.	.	.	.	.	.	.	.	.
.	.	.	.	.	.	.	.	.	16d-/	.	.	.	.	.	.	.	.	.	.	.	.	.	.	.	.	.	.	.	.	.	.	.	.
8G-\	.	.	8G-\	.	8B-/	.	8d-/	.	16e-/	.	8G-\	-ci-	.	8d-\	-ci-	.	8g-\	-ci-	.	8b-\	-ci-	.	.	.	.	.	.	.	.	.	.	.	.
.	.	.	.	.	.	.	.	.	16d-/JJ	.	.	.	.	.	.	.	.	.	.	.	.	.	.	.	.	.	.	.	.	.	.	.	.
8G-\	.	.	8G-\	.	8B-/	.	8d-/	.	16b-/LL	.	4G-\	-pe	.	4d-\	-pe	.	4g-\	-pe	.	4b-\	-pe	.	.	.	.	.	.	.	.	.	.	.	.
.	.	.	.	.	.	.	.	.	16d-/	.	.	.	.	.	.	.	.	.	.	.	.	.	.	.	.	.	.	.	.	.	.	.	.
8G-\J	.	.	8G-\J	.	8B-/J	.	8d-/J	.	16e-/	.	.	.	.	.	.	.	.	.	.	.	.	.	.	.	.	.	.	.	.	.	.	.	.
.	.	.	.	.	.	.	.	.	16d-/JJ	.	.	.	.	.	.	.	.	.	.	.	.	.	.	.	.	.	.	.	.	.	.	.	.
!	!	!	!	!	!	!	!LO:LB:g=original	!	!	!	!	!	!	!	!	!	!	!	!	!	!	!	!	!	!	!	!	!	!	!	!	!	!
=39	=39	=39	=39	=39	=39	=39	=39	=39	=39	=39	=39	=39	=39	=39	=39	=39	=39	=39	=39	=39	=39	=39	=39	=39	=39	=39	=39	=39	=39	=39	=39	=39	=39
8F\L	-6 -5	.	8F\L	.	8c-X\L	.	8d-X/L	.	16cc-X/LL	.	2F\	de-	.	2d-X\	de-	.	2a-\	de-	.	2cc-X\	de-	.	2.ryy	2.ryy	2.ryy	.	.	.	.	2.cc-X\	.	2.dd-X\	.
.	.	.	.	.	.	.	.	.	16d-X/	.	.	.	.	.	.	.	.	.	.	.	.	.	.	.	.	.	.	.	.	.	.	.	.
8F\	.	.	8F\	.	8c-\	.	8d-/	.	16e-/	.	.	.	.	.	.	.	.	.	.	.	.	.	.	.	.	.	.	.	.	.	.	.	.
.	.	.	.	.	.	.	.	.	16d-/JJ	.	.	.	.	.	.	.	.	.	.	.	.	.	.	.	.	.	.	.	.	.	.	.	.
8F\	.	.	8F\	.	8c-\	.	8d-/	.	16cc-/LL	.	.	.	.	.	.	.	.	.	.	.	.	.	.	.	.	.	.	.	.	.	.	.	.
.	.	.	.	.	.	.	.	.	16d-/	.	.	.	.	.	.	.	.	.	.	.	.	.	.	.	.	.	.	.	.	.	.	.	.
8F\	.	.	8F\	.	8c-\	.	8d-/	.	16e-/	.	.	.	.	.	.	.	.	.	.	.	.	.	.	.	.	.	.	.	.	.	.	.	.
.	.	.	.	.	.	.	.	.	16d-/JJ	.	.	.	.	.	.	.	.	.	.	.	.	.	.	.	.	.	.	.	.	.	.	.	.
8F\	.	.	8F\	.	8c-\	.	8d-/	.	16cc-/LL	.	4F\	-pre-	.	4d-\	-pre-	.	4a-\	-pre-	.	4cc-\	-pre-	.	.	.	.	.	.	.	.	.	.	.	.
.	.	.	.	.	.	.	.	.	16d-/	.	.	.	.	.	.	.	.	.	.	.	.	.	.	.	.	.	.	.	.	.	.	.	.
8F\J	.	.	8F\J	.	8c-\J	.	8d-/J	.	16e-/	.	.	.	.	.	.	.	.	.	.	.	.	.	.	.	.	.	.	.	.	.	.	.	.
.	.	.	.	.	.	.	.	.	16d-/JJ	.	.	.	.	.	.	.	.	.	.	.	.	.	.	.	.	.	.	.	.	.	.	.	.
=40	=40	=40	=40	=40	=40	=40	=40	=40	=40	=40	=40	=40	=40	=40	=40	=40	=40	=40	=40	=40	=40	=40	=40	=40	=40	=40	=40	=40	=40	=40	=40	=40	=40
!	!	!	!	!	!	!	!LO:SIC:v:s=8d-/L	!	!	!	!	!	!	!	!	!	!	!	!	!	!	!	!	!	!	!	!	!	!	!	!	!	!
8G-X\L	.	.	8G-X\L	.	8B-/L	.	8d/L	.	16b-/LL	.	2G-X\	-ca-	.	2d-X\	-ca-	.	2g-X\	-ca-	.	2b-\	-ca-	.	2.ryy	2.ryy	2.ryy	2.r	.	2.r	.	2.b-\	.	2dd-X\	.
.	.	.	.	.	.	.	.	.	16d-X/	.	.	.	.	.	.	.	.	.	.	.	.	.	.	.	.	.	.	.	.	.	.	.	.
!	!	!	!	!	!	!	!LO:SIC:v:s=8d-/	!	!	!	!	!	!	!	!	!	!	!	!	!	!	!	!	!	!	!	!	!	!	!	!	!	!
8G-\	.	.	8G-\	.	8B-/	.	8d/	.	16e-/	.	.	.	.	.	.	.	.	.	.	.	.	.	.	.	.	.	.	.	.	.	.	.	.
.	.	.	.	.	.	.	.	.	16d-/JJ	.	.	.	.	.	.	.	.	.	.	.	.	.	.	.	.	.	.	.	.	.	.	.	.
!	!	!	!	!	!	!	!LO:SIC:v:s=8d-/	!	!	!	!	!	!	!	!	!	!	!	!	!	!	!	!	!	!	!	!	!	!	!	!	!	!
8G-\	.	.	8G-\	.	8B-/	.	8d/	.	16b-/LL	.	.	.	.	.	.	.	.	.	.	.	.	.	.	.	.	.	.	.	.	.	.	.	.
.	.	.	.	.	.	.	.	.	16d-/	.	.	.	.	.	.	.	.	.	.	.	.	.	.	.	.	.	.	.	.	.	.	.	.
!	!	!	!	!	!	!	!LO:SIC:v:s=8d-/J	!	!	!	!	!	!	!	!	!	!	!	!	!	!	!	!	!	!	!	!	!	!	!	!	!	!
8G-\	.	.	8G-\	.	8B-/	.	8d/J	.	16e-/	.	.	.	.	.	.	.	.	.	.	.	.	.	.	.	.	.	.	.	.	.	.	.	.
*	*	*	*	*	*	*	*Xtremolo	*	*	*	*	*	*	*	*	*	*	*	*	*	*	*	*	*	*	*	*	*	*	*	*	*	*
.	.	.	.	.	.	.	.	.	16d-/JJ	.	.	.	.	.	.	.	.	.	.	.	.	.	.	.	.	.	.	.	.	.	.	.	.
8G-\	.	.	8G-\	.	8B-/	.	8en/L	.	16b-/LL	.	4G-\	-ti-	.	4en\	-ti-	.	4g-\	-ti-	.	4b-\	-ti-	.	.	.	.	.	.	.	.	.	.	4een\	.
.	.	.	.	.	.	.	.	.	16d-/	.	.	.	.	.	.	.	.	.	.	.	.	.	.	.	.	.	.	.	.	.	.	.	.
8G-\J	.	.	8G-\J	.	8B-/J	.	8e/J	.	16e-/	.	.	.	.	.	.	.	.	.	.	.	.	.	.	.	.	.	.	.	.	.	.	.	.
.	.	.	.	.	.	.	.	.	16d-/JJ	.	.	.	.	.	.	.	.	.	.	.	.	.	.	.	.	.	.	.	.	.	.	.	.
*	*	*	*	*	*	*	*	*	*	*	*	*	*	*	*	*	*	*	*	*	*	*	*	*	*	*	*	*custos:cc	*	*	*	*	*
!	!	!	!	!	!	!	!	!	!	!	!	!	!	!	!	!	!	!	!	!	!	!	!	!	!	!	!	!LO:LB:g=original	!	!	!	!	!
=41	=41	=41	=41	=41	=41	=41	=41	=41	=41	=41	=41	=41	=41	=41	=41	=41	=41	=41	=41	=41	=41	=41	=41	=41	=41	=41	=41	=41	=41	=41	=41	=41	=41
*	*	*	*	*	*	*	*tremolo	*	*	*	*	*	*	*	*	*	*	*	*	*	*	*	*	*	*	*	*	*	*	*	*	*	*
!	!	!	!	!	!	!	!	!	!	!	!	!	!	!	!	!	!	!	!	!	!	!	!	!	!	!	!LO:DY:a:t=ffor&colon;	!	!LO:DY:a:t=f.	!	!	!	!
8Gn\L	6 -5	.	8Gn\L	.	8B-/L	.	8e-X/L	.	16dd-X/LL	.	2Gn\	-o-	.	2e-X\	-o-	.	2e-\	-o-	.	2dd-X\	-o-	.	2.ryy	2.ryy	2.ryy	2.e-\	ff	2.e-\	f	2.dd-X\	.	2.ee-X\	.
.	.	.	.	.	.	.	.	.	16e-/	.	.	.	.	.	.	.	.	.	.	.	.	.	.	.	.	.	.	.	.	.	.	.	.
8G\	.	.	8G\	.	8B-/	.	8e-/	.	16f-/	.	.	.	.	.	.	.	.	.	.	.	.	.	.	.	.	.	.	.	.	.	.	.	.
.	.	.	.	.	.	.	.	.	16e-/JJ	.	.	.	.	.	.	.	.	.	.	.	.	.	.	.	.	.	.	.	.	.	.	.	.
8G\	.	.	8G\	.	8B-/	.	8e-/	.	16dd-/LL	.	.	.	.	.	.	.	.	.	.	.	.	.	.	.	.	.	.	.	.	.	.	.	.
.	.	.	.	.	.	.	.	.	16e-/	.	.	.	.	.	.	.	.	.	.	.	.	.	.	.	.	.	.	.	.	.	.	.	.
8G\	.	.	8G\	.	8B-/	.	8e-/	.	16f-/	.	.	.	.	.	.	.	.	.	.	.	.	.	.	.	.	.	.	.	.	.	.	.	.
.	.	.	.	.	.	.	.	.	16e-/JJ	.	.	.	.	.	.	.	.	.	.	.	.	.	.	.	.	.	.	.	.	.	.	.	.
!	!	!	!	!	!	!	!	!	!	!	!	!	!	!LO:TX:t=P:problem:wykreślony takt	!	!	!	!	!	!	!	!	!	!	!	!	!	!	!	!	!	!	!
8G\	.	.	8G\	.	8B-/	.	8e-/	.	16dd-/LL	.	4G\	-nem	.	4e-\	-nem	.	4e-\	-nem	.	4dd-\	-nem	.	.	.	.	.	.	.	.	.	.	.	.
.	.	.	.	.	.	.	.	.	16e-/	.	.	.	.	.	.	.	.	.	.	.	.	.	.	.	.	.	.	.	.	.	.	.	.
8G\J	.	.	8G\J	.	8B-/J	.	8e-/J	.	16f-/	.	.	.	.	.	.	.	.	.	.	.	.	.	.	.	.	.	.	.	.	.	.	.	.
.	.	.	.	.	.	.	.	.	16e-/JJ	.	.	.	.	.	.	.	.	.	.	.	.	.	.	.	.	.	.	.	.	.	.	.	.
!	!	!	!	!	!	!	!	!	!	!	!	!	!	!LO:LB:g=original	!	!	!	!	!	!	!	!	!	!	!	!	!	!	!	!	!	!	!
=42	=42	=42	=42	=42	=42	=42	=42	=42	=42	=42	=42	=42	=42	=42	=42	=42	=42	=42	=42	=42	=42	=42	=42	=42	=42	=42	=42	=42	=42	=42	=42	=42	=42
8A-\L	.	.	8A-\L	.	8cnX\L	.	8e-/L	.	16ccnX/LL	.	2A-\	no-	.	2c\	no-	.	2e-\	no-	.	2cc\	no-	.	2.ryy	2.ryy	2.ryy	2.e-\	.	2.e-\	.	2.ccnX\	.	2ee-\	.
.	.	.	.	.	.	.	.	.	16e-/	.	.	.	.	.	.	.	.	.	.	.	.	.	.	.	.	.	.	.	.	.	.	.	.
8A-\	.	.	8A-\	.	8c\	.	8e-/	.	16f/	.	.	.	.	.	.	.	.	.	.	.	.	.	.	.	.	.	.	.	.	.	.	.	.
.	.	.	.	.	.	.	.	.	16e-/JJ	.	.	.	.	.	.	.	.	.	.	.	.	.	.	.	.	.	.	.	.	.	.	.	.
!	!	!	!	!	!	!	!	!	!LO:LB:g=origianl	!	!	!	!	!	!	!	!	!	!	!	!	!	!	!	!	!	!	!	!	!	!	!	!
8A-\	.	.	8A-\	.	8c\	.	8e-/	.	16cc/LL	.	.	.	.	.	.	.	.	.	.	.	.	.	.	.	.	.	.	.	.	.	.	.	.
.	.	.	.	.	.	.	.	.	16e-/	.	.	.	.	.	.	.	.	.	.	.	.	.	.	.	.	.	.	.	.	.	.	.	.
8A-\	.	.	8A-\	.	8c\	.	8e-/J	.	16f/	.	.	.	.	.	.	.	.	.	.	.	.	.	.	.	.	.	.	.	.	.	.	.	.
*	*	*	*	*	*	*	*Xtremolo	*	*	*	*	*	*	*	*	*	*	*	*	*	*	*	*	*	*	*	*	*	*	*	*	*	*
.	.	.	.	.	.	.	.	.	16e-/JJ	.	.	.	.	.	.	.	.	.	.	.	.	.	.	.	.	.	.	.	.	.	.	.	.
8A-\	.	.	8A-\	.	8c\	.	8g-X/L	.	16cc/LL	.	4A-\	-ſtram	.	4c\	-ſtram	.	4g-X\	-stram	.	4cc\	-stram	.	.	.	.	.	.	.	.	.	.	4gg-X\	.
.	.	.	.	.	.	.	.	.	16e-/	.	.	.	.	.	.	.	.	.	.	.	.	.	.	.	.	.	.	.	.	.	.	.	.
8A-\J	.	.	8A-\J	.	8c\J	.	8g-/J	.	16f/	.	.	.	.	.	.	.	.	.	.	.	.	.	.	.	.	.	.	.	.	.	.	.	.
.	.	.	.	.	.	.	.	.	16e-/JJ	.	.	.	.	.	.	.	.	.	.	.	.	.	.	.	.	.	.	.	.	.	.	.	.
!	!	!	!	!	!LO:LB:g=original	!	!	!	!	!	!	!	!	!	!	!	!	!	!	!	!	!	!	!	!	!LO:LB:g=original	!	!	!	!	!	!	!
=43	=43	=43	=43	=43	=43	=43	=43	=43	=43	=43	=43	=43	=43	=43	=43	=43	=43	=43	=43	=43	=43	=43	=43	=43	=43	=43	=43	=43	=43	=43	=43	=43	=43
*	*	*	*	*	*	*	*tremolo	*	*	*	*	*	*	*	*	*	*	*	*	*	*	*	*	*	*	*	*	*	*	*	*	*	*
!	!	!	!	!	!	!	!	!	!LO:TX:t=P:problem:mixed beam	!	!	!	!	!	!	!	!	!	!	!	!	!	!	!	!	!	!	!	!	!	!	!	!
8An\L	6 5	.	8An\L	.	8c\L	.	8f/L	.	16ee-\LL	.	2An\	de-	.	2c\	de-	.	2f\	de-	.	2ee-\	de-	.	2.ryy	2.ryy	2.ryy	2.f\	.	2.f\	.	2cc\	.	2.ff\	.
.	.	.	.	.	.	.	.	.	16f/	.	.	.	.	.	.	.	.	.	.	.	.	.	.	.	.	.	.	.	.	.	.	.	.
8A\	.	.	8A\	.	8c\	.	8f/	.	16g-X/	.	.	.	.	.	.	.	.	.	.	.	.	.	.	.	.	.	.	.	.	.	.	.	.
.	.	.	.	.	.	.	.	.	16f/JJ	.	.	.	.	.	.	.	.	.	.	.	.	.	.	.	.	.	.	.	.	.	.	.	.
!	!	!	!	!	!	!	!	!	!LO:TX:t=P:problem:mixed beam	!	!	!	!	!	!	!	!	!	!	!	!	!	!	!	!	!	!	!	!	!	!	!	!
8A\	.	.	8A\	.	8c\	.	8f/	.	16ee-\LL	.	.	.	.	.	.	.	.	.	.	.	.	.	.	.	.	.	.	.	.	.	.	.	.
.	.	.	.	.	.	.	.	.	16f/	.	.	.	.	.	.	.	.	.	.	.	.	.	.	.	.	.	.	.	.	.	.	.	.
8A\	.	.	8A\	.	8c\	.	8f/	.	16g-/	.	.	.	.	.	.	.	.	.	.	.	.	.	.	.	.	.	.	.	.	.	.	.	.
.	.	.	.	.	.	.	.	.	16f/JJ	.	.	.	.	.	.	.	.	.	.	.	.	.	.	.	.	.	.	.	.	.	.	.	.
!	!	!	!	!	!	!	!	!	!LO:TX:t=P:problem:mixed beam	!	!	!	!	!	!	!	!	!	!	!	!	!	!	!	!	!	!	!	!	!	!	!	!
8A\	.	.	8A\	.	8c\	.	8f/	.	16ee-\LL	.	4A\	-pre-	.	4c\	-pre-	.	4f\	-pre-	.	4ee-\	-pre-	.	.	.	.	.	.	.	.	4ee-\	.	.	.
.	.	.	.	.	.	.	.	.	16f/	.	.	.	.	.	.	.	.	.	.	.	.	.	.	.	.	.	.	.	.	.	.	.	.
8A\J	.	.	8A\J	.	8c\J	.	8f/J	.	16g-/	.	.	.	.	.	.	.	.	.	.	.	.	.	.	.	.	.	.	.	.	.	.	.	.
.	.	.	.	.	.	.	.	.	16f/JJ	.	.	.	.	.	.	.	.	.	.	.	.	.	.	.	.	.	.	.	.	.	.	.	.
=44	=44	=44	=44	=44	=44	=44	=44	=44	=44	=44	=44	=44	=44	=44	=44	=44	=44	=44	=44	=44	=44	=44	=44	=44	=44	=44	=44	=44	=44	=44	=44	=44	=44
!	!	!	!	!	!	!	!	!	!LO:TX:t=P:problem:mixed beam	!	!	!	!	!	!	!	!	!	!	!	!	!	!	!	!	!	!	!	!	!	!	!	!
8B-\L	-	.	8B-\L	.	8d-X\L	.	8f/L	.	16dd-X\LL	.	2B-\	-ca-	.	2B-\	-ca-	.	2f\	-ca-	.	2dd-X\	-ca-	.	2.ryy	2.ryy	2.ryy	2.f\	.	2.f\	.	2.dd-X\	.	2.ff\	.
.	.	.	.	.	.	.	.	.	16f/	.	.	.	.	.	.	.	.	.	.	.	.	.	.	.	.	.	.	.	.	.	.	.	.
8B-\	.	.	8B-\	.	8d-\	.	8f/	.	16g-X/	.	.	.	.	.	.	.	.	.	.	.	.	.	.	.	.	.	.	.	.	.	.	.	.
.	.	.	.	.	.	.	.	.	16f/JJ	.	.	.	.	.	.	.	.	.	.	.	.	.	.	.	.	.	.	.	.	.	.	.	.
!	!	!	!	!	!	!	!	!	!LO:TX:t=P:problem:mixed beam	!	!	!	!	!	!	!	!	!	!	!	!	!	!	!	!	!	!	!	!	!	!	!	!
8B-\	.	.	8B-\	.	8d-\	.	8f/	.	16dd-\LL	.	.	.	.	.	.	.	.	.	.	.	.	.	.	.	.	.	.	.	.	.	.	.	.
.	.	.	.	.	.	.	.	.	16f/	.	.	.	.	.	.	.	.	.	.	.	.	.	.	.	.	.	.	.	.	.	.	.	.
8B-\	.	.	8B-\	.	8d-\	.	8f/	.	16g-/	.	.	.	.	.	.	.	.	.	.	.	.	.	.	.	.	.	.	.	.	.	.	.	.
.	.	.	.	.	.	.	.	.	16f/JJ	.	.	.	.	.	.	.	.	.	.	.	.	.	.	.	.	.	.	.	.	.	.	.	.
!	!	!	!	!	!	!	!	!	!LO:TX:t=P:problem:mixed beam	!	!	!	!	!	!	!	!	!	!	!	!	!	!	!	!	!	!	!	!	!	!	!	!
8B-\	.	.	8B-\	.	8d-\	.	8f/	.	16dd-\LL	.	4B-\	-ti-	.	4B-\	-ti-	.	4f\	-ti-	.	4dd-\	-ti-	.	.	.	.	.	.	.	.	.	.	.	.
.	.	.	.	.	.	.	.	.	16f/	.	.	.	.	.	.	.	.	.	.	.	.	.	.	.	.	.	.	.	.	.	.	.	.
8B-\J	.	.	8B-\J	.	8d-\J	.	8f/J	.	16g-/	.	.	.	.	.	.	.	.	.	.	.	.	.	.	.	.	.	.	.	.	.	.	.	.
.	.	.	.	.	.	.	.	.	16f/JJ	.	.	.	.	.	.	.	.	.	.	.	.	.	.	.	.	.	.	.	.	.	.	.	.
*Xtremolo	*	*	*Xtremolo	*	*	*	*	*	*	*	*	*	*	*	*	*	*	*	*	*	*	*	*	*	*	*	*	*	*	*	*	*	*
!	!	!	!LO:PB:g=original	!	!	!	!	!	!	!	!	!	!	!	!	!	!	!	!	!LO:LB:g=original	!	!	!	!	!	!	!	!	!	!	!	!	!
=45	=45	=45	=45	=45	=45	=45	=45	=45	=45	=45	=45	=45	=45	=45	=45	=45	=45	=45	=45	=45	=45	=45	=45	=45	=45	=45	=45	=45	=45	=45	=45	=45	=45
*	*	*	*tremolo	*	*	*	*	*	*	*	*	*	*	*	*	*	*	*	*	*	*	*	*	*	*	*	*	*	*	*	*	*	*
8c\L	-5_ 3_	.	8c\L	.	8e-\L	.	8g-X/L	.	16r	.	2c\	-o-	.	2e-\	-o-	.	2g-X\	-o-	.	2an\	-o-	.	2.ryy	2.ryy	2.ryy	2.e-\	.	2.e-\	.	2an/	.	2.gg-X\	.
.	.	.	.	.	.	.	.	.	16an/LL	.	.	.	.	.	.	.	.	.	.	.	.	.	.	.	.	.	.	.	.	.	.	.	.
8c\J	.	.	8c\	.	8e-\	.	8g-/	.	16b-/	.	.	.	.	.	.	.	.	.	.	.	.	.	.	.	.	.	.	.	.	.	.	.	.
.	.	.	.	.	.	.	.	.	16a/JJ	.	.	.	.	.	.	.	.	.	.	.	.	.	.	.	.	.	.	.	.	.	.	.	.
!LO:LB:g=original	!	!	!	!	!	!	!	!	!	!	!	!	!	!	!	!	!	!	!	!	!	!	!	!	!	!	!	!	!	!	!	!	!
8c\L	.	.	8c\	.	8e-\	.	8g-/	.	16r	.	.	.	.	.	.	.	.	.	.	.	.	.	.	.	.	.	.	.	.	.	.	.	.
.	.	.	.	.	.	.	.	.	16anX/LL	.	.	.	.	.	.	.	.	.	.	.	.	.	.	.	.	.	.	.	.	.	.	.	.
8c\J	.	.	8c\J	.	8e-\	.	8g-/	.	16b-/	.	.	.	.	.	.	.	.	.	.	.	.	.	.	.	.	.	.	.	.	.	.	.	.
.	.	.	.	.	.	.	.	.	16a/JJ	.	.	.	.	.	.	.	.	.	.	.	.	.	.	.	.	.	.	.	.	.	.	.	.
*	*	*	*Xtremolo	*	*	*	*	*	*	*	*	*	*	*	*	*	*	*	*	*	*	*	*	*	*	*	*	*	*	*	*	*	*
8B-\L	.	.	8B-\L	.	8e-\	.	8g-/	.	16r	.	4B-\	-ne[m]	.	4e-\	-nem	.	4g-\	-nem	.	4b-\	-nem	.	.	.	.	.	.	.	.	4b-\	.	.	.
.	.	.	.	.	.	.	.	.	16b-\LL	.	.	.	.	.	.	.	.	.	.	.	.	.	.	.	.	.	.	.	.	.	.	.	.
8B-\J	.	.	8B-\J	.	8e-\J	.	8g-/J	.	16cc\	.	.	.	.	.	.	.	.	.	.	.	.	.	.	.	.	.	.	.	.	.	.	.	.
.	.	.	.	.	.	.	.	.	16b-\JJ	.	.	.	.	.	.	.	.	.	.	.	.	.	.	.	.	.	.	.	.	.	.	.	.
=46	=46	=46	=46	=46	=46	=46	=46	=46	=46	=46	=46	=46	=46	=46	=46	=46	=46	=46	=46	=46	=46	=46	=46	=46	=46	=46	=46	=46	=46	=46	=46	=46	=46
!	!	!	!	!	!	!	!	!	!	!	!	!	!	!	!	!	!LO:SIC:v:s=2g-\	!	!	!	!	!	!	!	!	!	!	!	!	!	!	!LO:SIC:v:s=2gg-X\	!
8An\L	.	.	8An\L	.	8e-\L	.	8g-X/L	.	16cc\LL	.	(4An\	no-	.	2e-\	no-	.	2g\	no-	.	2cc\	no-	.	2.ryy	2.ryy	2.ryy	2.e-\	.	2.e-\	.	2.ee-\	.	2gg\	.
.	.	.	.	.	.	.	.	.	16cc\	.	.	.	.	.	.	.	.	.	.	.	.	.	.	.	.	.	.	.	.	.	.	.	.
8A\	.	.	8A\	.	8e-\	.	8g-/	.	16dd\	.	.	.	.	.	.	.	.	.	.	.	.	.	.	.	.	.	.	.	.	.	.	.	.
.	.	.	.	.	.	.	.	.	16cc\JJ	.	.	.	.	.	.	.	.	.	.	.	.	.	.	.	.	.	.	.	.	.	.	.	.
*	*	*	*	*	*	*	*	*	*rep	*	*	*	*	*	*	*	*	*	*	*	*	*	*	*	*	*	*	*	*	*	*	*	*
8A-X\	.	.	8A-X\	.	8e-\	.	8g-/	.	16cc\LL	.	4A-X\)	.	.	.	.	.	.	.	.	.	.	.	.	.	.	.	.	.	.	.	.	.	.
.	.	.	.	.	.	.	.	.	16cc\	.	.	.	.	.	.	.	.	.	.	.	.	.	.	.	.	.	.	.	.	.	.	.	.
8A-\	.	.	8A-\	.	8e-\	.	8g-/J	.	16dd\	.	.	.	.	.	.	.	.	.	.	.	.	.	.	.	.	.	.	.	.	.	.	.	.
.	.	.	.	.	.	.	.	.	16cc\JJ	.	.	.	.	.	.	.	.	.	.	.	.	.	.	.	.	.	.	.	.	.	.	.	.
*	*	*	*	*	*	*	*Xtremolo	*	*Xrep	*	*	*	*	*	*	*	*	*	*	*	*	*	*	*	*	*	*	*	*	*	*	*	*
*	*	*	*	*	*	*	*	*	*rep	*	*	*	*	*	*	*	*	*	*	*	*	*	*	*	*	*	*	*	*	*	*	*	*
8G\	6 4	.	8G\	.	8e-\	.	8gn/L	.	16cc\LL	.	4G\	-ſtram	.	4e-\	-ſtram	.	4gn\	-ſtram	.	4cc\	-ſtram	.	.	.	.	.	.	.	.	.	.	4ggn\	.
.	.	.	.	.	.	.	.	.	16cc\	.	.	.	.	.	.	.	.	.	.	.	.	.	.	.	.	.	.	.	.	.	.	.	.
8G\J	.	.	8G\J	.	8e-\J	.	8g/J	.	16dd\	.	.	.	.	.	.	.	.	.	.	.	.	.	.	.	.	.	.	.	.	.	.	.	.
.	.	.	.	.	.	.	.	.	16cc\JJ	.	.	.	.	.	.	.	.	.	.	.	.	.	.	.	.	.	.	.	.	.	.	.	.
*	*	*	*	*	*	*	*	*	*Xrep	*	*	*	*	*	*	*	*	*	*	*	*	*	*	*	*	*	*	*	*	*	*	*	*
!	!	!	!	!	!	!	!	!	!LO:LB:g=original	!	!	!	!	!	!	!	!	!	!	!	!	!	!	!	!	!	!	!	!	!	!	!	!
=47	=47	=47	=47	=47	=47	=47	=47	=47	=47	=47	=47	=47	=47	=47	=47	=47	=47	=47	=47	=47	=47	=47	=47	=47	=47	=47	=47	=47	=47	=47	=47	=47	=47
*tremolo	*	*	*tremolo	*	*	*	*tremolo	*	*	*	*	*	*	*	*ij	*	*	*ij	*	*	*ij	*	*	*	*	*	*	*	*	*	*	*	*
!	!	!	!	!	!	!	!	!	!	!	!	!LO:SIC:v:l:s=no-	!	!	!	!	!	!	!	!	!	!	!	!	!	!	!	!	!	!	!	!	!
8F#X\L	7_ 5_	.	8F#X\L	.	8e-\L	.	8an/L	.	16ee-\LL	.	2.F#X\	noſ-	.	2.e-\	no-	.	2.an\	no-	.	2.cc\	no-	.	2.ryy	2.ryy	2.ryy	4e-\	.	4e-\	.	2.ee-\	.	2.aan\	.
.	.	.	.	.	.	.	.	.	16bn\	.	.	.	.	.	.	.	.	.	.	.	.	.	.	.	.	.	.	.	.	.	.	.	.
8F#\	.	.	8F#\	.	8e-\	.	8a/	.	16cc\	.	.	.	.	.	.	.	.	.	.	.	.	.	.	.	.	.	.	.	.	.	.	.	.
.	.	.	.	.	.	.	.	.	16b\JJ	.	.	.	.	.	.	.	.	.	.	.	.	.	.	.	.	.	.	.	.	.	.	.	.
8F#\	.	.	8F#\	.	8e-\	.	8a/	.	16cc\LL	.	.	.	.	.	.	.	.	.	.	.	.	.	.	.	.	4r	.	4r	.	.	.	.	.
.	.	.	.	.	.	.	.	.	16b\	.	.	.	.	.	.	.	.	.	.	.	.	.	.	.	.	.	.	.	.	.	.	.	.
8F#\	.	.	8F#\	.	8e-\	.	8a/	.	16cc\	.	.	.	.	.	.	.	.	.	.	.	.	.	.	.	.	.	.	.	.	.	.	.	.
.	.	.	.	.	.	.	.	.	16b\JJ	.	.	.	.	.	.	.	.	.	.	.	.	.	.	.	.	.	.	.	.	.	.	.	.
8F#\	.	.	8F#\	.	8e-\	.	8a/	.	16cc\LL	.	.	.	.	.	.	.	.	.	.	.	.	.	.	.	.	4r	.	4r	.	.	.	.	.
.	.	.	.	.	.	.	.	.	16ee-\	.	.	.	.	.	.	.	.	.	.	.	.	.	.	.	.	.	.	.	.	.	.	.	.
8F#\J	.	.	8F#\J	.	8e-\J	.	8a/J	.	16cc\	.	.	.	.	.	.	.	.	.	.	.	.	.	.	.	.	.	.	.	.	.	.	.	.
.	.	.	.	.	.	.	.	.	16dd\JJ	.	.	.	.	.	.	.	.	.	.	.	.	.	.	.	.	.	.	.	.	.	.	.	.
*Xtremolo	*	*	*Xtremolo	*	*Xtremolo	*	*Xtremolo	*	*	*	*	*	*	*	*	*	*	*	*	*	*	*	*	*	*	*	*	*	*	*	*	*	*
!	!	!	!	!	!	!	!	!	!	!	!LO:TX:b:rj:t=Vertatur	!	!	!	!	!	!	!	!	!	!	!	!	!	!	!	!	!	!	!	!	!	!
!	!	!	!	!	!	!	!	!	!	!	!LO:PB:g=original	!	!	!	!	!	!	!	!	!	!	!	!	!	!	!	!	!	!	!	!	!	!
=48	=48	=48	=48	=48	=48	=48	=48	=48	=48	=48	=48	=48	=48	=48	=48	=48	=48	=48	=48	=48	=48	=48	=48	=48	=48	=48	=48	=48	=48	=48	=48	=48	=48
!	!	!	!	!LO:DY:a:t=p.	!	!LO:DY:a:t=p.	!	!	!	!LO:DY:a:t=p&colon;	!	!	!	!	!	!	!	!	!	!	!	!	!	!	!	!	!LO:DY:a:t=p.	!	!	!	!	!	!
4G\	n X	.	4G\	p	4d\	p	4d/	.	8bn\L	p	4G\	-ſtram	.	4d\	-ſtram	.	4g\	-ſtram	.	4bn\	-ſtram	.	2.ryy	2.ryy	2.ryy	4G/	p	4g\	.	4dd\	.	4bbn\	.
*	*	*	*	*	*	*	*	*	*	*	*	*	*	*	*Xij	*	*	*Xij	*	*	*Xij	*	*	*	*	*	*	*	*	*	*	*	*
.	.	.	.	.	.	.	.	.	8gg\	.	.	.	.	.	.	.	.	.	.	.	.	.	.	.	.	.	.	.	.	.	.	.	.
!	!	!LO:DY:a:t=pp.	!	!	!	!	!	!LO:DY:a:t=p.	!	!	!	!	!	!	!	!	!	!	!	!	!	!	!	!	!	!	!	!	!	!	!	!	!
4GG/	.	pp	4GG/	.	4G/	.	8r	p	8dd\	.	4r	.	.	4r	.	.	4r	.	.	4r	.	.	.	.	.	4r	.	4r	.	4r	.	4r	.
.	.	.	.	.	.	.	8Bn/L	.	8dd\J	.	.	.	.	.	.	.	.	.	.	.	.	.	.	.	.	.	.	.	.	.	.	.	.
4r	.	.	4r	.	4r	.	8c/	.	8.ee-T\L	.	4r	.	.	4r	.	.	4r	.	.	4r	.	.	.	.	.	4r	.	4r	.	4r	.	4r	.
.	.	.	.	.	.	.	8e-/J	.	.	.	.	.	.	.	.	.	.	.	.	.	.	.	.	.	.	.	.	.	.	.	.	.	.
.	.	.	.	.	.	.	.	.	32ff\LL	.	.	.	.	.	.	.	.	.	.	.	.	.	.	.	.	.	.	.	.	.	.	.	.
.	.	.	.	.	.	.	.	.	32gg\JJJ	.	.	.	.	.	.	.	.	.	.	.	.	.	.	.	.	.	.	.	.	.	.	.	.
=49	=49	=49	=49	=49	=49	=49	=49	=49	=49	=49	=49	=49	=49	=49	=49	=49	=49	=49	=49	=49	=49	=49	=49	=49	=49	=49	=49	=49	=49	=49	=49	=49	=49
!	!	!	!	!	!	!	!	!	!	!	!LO:N:vis=0	!	!	!LO:N:vis=0	!	!	!LO:N:vis=0	!	!	!LO:N:vis=0	!	!	!	!	!	!	!	!	!LO:DY:a:rj:t=p.	!LO:N:vis=0	!	!LO:N:vis=0	!
4G\	.	.	4G\	.	4G/	.	4d/	.	8bn\L	.	1.r	.	.	1.r	.	.	1.r	.	.	1.r	.	.	2.ryy	2.ryy	2.ryy	4G/	.	4g\	p	1.r	.	1.r	.
.	.	.	.	.	.	.	.	.	8b\	.	.	.	.	.	.	.	.	.	.	.	.	.	.	.	.	.	.	.	.	.	.	.	.
4GG/	.	.	4GG/	.	8r	.	8r	.	8b\	.	.	.	.	.	.	.	.	.	.	.	.	.	.	.	.	4r	.	4r	.	.	.	.	.
.	.	.	.	.	8f\L	.	8d/L	.	8b\J	.	.	.	.	.	.	.	.	.	.	.	.	.	.	.	.	.	.	.	.	.	.	.	.
4r	.	.	4r	.	8e-\	.	8e-/	.	8.ccT\L	.	.	.	.	.	.	.	.	.	.	.	.	.	.	.	.	4r	.	4r	.	.	.	.	.
.	.	.	.	.	8c\J	.	8c/J	.	.	.	.	.	.	.	.	.	.	.	.	.	.	.	.	.	.	.	.	.	.	.	.	.	.
.	.	.	.	.	.	.	.	.	32dd\LL	.	.	.	.	.	.	.	.	.	.	.	.	.	.	.	.	.	.	.	.	.	.	.	.
.	.	.	.	.	.	.	.	.	32ee-\JJJ	.	.	.	.	.	.	.	.	.	.	.	.	.	.	.	.	.	.	.	.	.	.	.	.
=50	=50	=50	=50	=50	=50	=50	=50	=50	=50	=50	=50	=50	=50	=50	=50	=50	=50	=50	=50	=50	=50	=50	=50	=50	=50	=50	=50	=50	=50	=50	=50	=50	=50
4GG/	.	.	4GG/	.	4G/	.	4Bn/	.	(8dd\L	.	.	.	.	.	.	.	.	.	.	.	.	.	2.ryy	2.ryy	2.ryy	4G/	.	4g\	.	.	.	.	.
.	.	.	.	.	.	.	.	.	8gg\	.	.	.	.	.	.	.	.	.	.	.	.	.	.	.	.	.	.	.	.	.	.	.	.
!LO:TX:t=P:problem:8r poprawione na 4r	!	!	!	!	!	!	!	!	!	!	!	!	!	!	!	!	!	!	!	!	!	!	!	!	!	!LO:TX:t=P:problem:8r poprawione na 4r	!	!	!	!	!	!	!
4r	.	.	4r	.	4r	.	4r	.	8ff#X\	.	.	.	.	.	.	.	.	.	.	.	.	.	.	.	.	4r	.	4r	.	.	.	.	.
.	.	.	.	.	.	.	.	.	8gg\	.	.	.	.	.	.	.	.	.	.	.	.	.	.	.	.	.	.	.	.	.	.	.	.
!	!	!	!	!	!	!	!LO:LB:g=original	!	!	!	!	!	!	!	!	!	!	!	!	!	!	!	!	!	!	!	!	!	!	!	!	!	!
8r	.	.	8r	.	8r	.	8r	.	8aa-\	.	.	.	.	.	.	.	.	.	.	.	.	.	.	.	.	8r	.	8r	.	.	.	.	.
!	!	!	!	!LO:DY:a:t=ffor&colon;	!	!	!	!	!	!	!	!	!	!	!	!	!	!	!	!	!	!	!	!	!	!	!	!	!	!	!	!	!
8F\	4| 2	.	8F\	ff	8a-\	.	8d/	.	8bn\J)	.	.	.	.	.	.	.	.	.	.	.	.	.	.	.	.	8f\	.	8g\	.	.	.	.	.
=51	=51	=51	=51	=51	=51	=51	=51	=51	=51	=51	=51	=51	=51	=51	=51	=51	=51	=51	=51	=51	=51	=51	=51	=51	=51	=51	=51	=51	=51	=51	=51	=51	=51
*tremolo	*	*	*tremolo	*	*	*	*tremolo	*	*	*	*	*	*	*	*	*	*	*	*	*	*	*	*	*	*	*tremolo	*	*tremolo	*	*	*	*	*
!	!	!LO:DY:a:rj:t=ffor&colon;	!	!	!	!	!	!LO:DY:a:t=ffor&colon;	!	!LO:DY:a:t=ffor&colon;	!	!	!	!	!	!	!	!	!	!	!	!	!	!	!	!	!LO:DY:a:t=ff.	!	!LO:DY:a:t=ffor&colon;	!	!	!	!
8E-\L	6	ff	8E-\L	.	8g\L	.	8g/L	ff	16cc\LL	ff	4E-\	Qui	.	4c\	Qui	.	4g\	Qui	.	4cc\	Qui	.	2.ryy	2.ryy	2.ryy	8e-\L	ff	8g\L	ff	2.cc\	.	2.gg\	.
.	.	.	.	.	.	.	.	.	16g\	.	.	.	.	.	.	.	.	.	.	.	.	.	.	.	.	.	.	.	.	.	.	.	.
8E-\	.	.	8E-\	.	8g\J	.	8g/	.	16e-\	.	.	.	.	.	.	.	.	.	.	.	.	.	.	.	.	8e-\	.	8g\	.	.	.	.	.
.	.	.	.	.	.	.	.	.	16d\JJ	.	.	.	.	.	.	.	.	.	.	.	.	.	.	.	.	.	.	.	.	.	.	.	.
*	*	*	*	*	*tremolo	*	*	*	*	*	*	*	*	*	*	*	*	*	*	*	*	*	*	*	*	*	*	*	*	*	*	*	*
8E-\	.	.	8E-\	.	8c\L	.	8g/	.	16c/LL	.	4E-\	Se-	.	4c\	se-	.	4g\	se-	.	4cc\	se-	.	.	.	.	8e-\	.	8g\	.	.	.	.	.
.	.	.	.	.	.	.	.	.	16g/	.	.	.	.	.	.	.	.	.	.	.	.	.	.	.	.	.	.	.	.	.	.	.	.
8E-\	.	.	8E-\	.	8c\	.	8g/	.	16cc/	.	.	.	.	.	.	.	.	.	.	.	.	.	.	.	.	8e-\	.	8g\	.	.	.	.	.
.	.	.	.	.	.	.	.	.	16ee-/JJ	.	.	.	.	.	.	.	.	.	.	.	.	.	.	.	.	.	.	.	.	.	.	.	.
!	!	!	!	!	!	!	!	!	!	!	!	!	!	!	!	!	!LO:LB:g=original	!	!	!	!	!	!	!	!	!	!	!	!	!	!	!	!
8E-\	.	.	8E-\	.	8c\	.	8g/	.	16gg\LL	.	8E-\	-des	.	8c\	-des	.	8g\	-des	.	8cc\	-des	.	.	.	.	8e-\	.	8g\	.	.	.	.	.
.	.	.	.	.	.	.	.	.	16ee-\	.	.	.	.	.	.	.	.	.	.	.	.	.	.	.	.	.	.	.	.	.	.	.	.
8E-\J	.	.	8E-\J	.	8c\J	.	8g/J	.	16dd\	.	8E-\	ad	.	8c\	ad	.	8g\	ad	.	8cc\	ad	.	.	.	.	8e-\J	.	8g\J	.	.	.	.	.
.	.	.	.	.	.	.	.	.	16cc\JJ	.	.	.	.	.	.	.	.	.	.	.	.	.	.	.	.	.	.	.	.	.	.	.	.
=52	=52	=52	=52	=52	=52	=52	=52	=52	=52	=52	=52	=52	=52	=52	=52	=52	=52	=52	=52	=52	=52	=52	=52	=52	=52	=52	=52	=52	=52	=52	=52	=52	=52
8F\L	5	.	8F\L	.	8c\L	.	8a-/L	.	16aa-\LL	.	4.F\	dex-	.	4.c\	dex-	.	4.a-\	dex-	.	4.cc\	dex-	.	2.ryy	2.ryy	2.ryy	8f\L	.	8a-\L	.	2.cc\	.	2.aa-\	.
.	.	.	.	.	.	.	.	.	16cc\	.	.	.	.	.	.	.	.	.	.	.	.	.	.	.	.	.	.	.	.	.	.	.	.
8F\	.	.	8F\	.	8c\	.	8a-/	.	16bn\	.	.	.	.	.	.	.	.	.	.	.	.	.	.	.	.	8f\	.	8a-\	.	.	.	.	.
.	.	.	.	.	.	.	.	.	16cc\JJ	.	.	.	.	.	.	.	.	.	.	.	.	.	.	.	.	.	.	.	.	.	.	.	.
!	!	!	!	!	!	!	!	!	!LO:LB:g=origianl	!	!	!	!	!	!	!	!	!	!	!	!	!	!	!	!	!	!	!	!	!	!	!	!
8F\	.	.	8F\	.	8c\	.	8a-/	.	16r	.	.	.	.	.	.	.	.	.	.	.	.	.	.	.	.	8f\	.	8a-\	.	.	.	.	.
.	.	.	.	.	.	.	.	.	16cc\LL	.	.	.	.	.	.	.	.	.	.	.	.	.	.	.	.	.	.	.	.	.	.	.	.
8F\	.	.	8F\	.	8c\	.	8a-/	.	16bnX\	.	8F\	-te-	.	8c\	-te-	.	8a-\	-te-	.	8cc\	-te-	.	.	.	.	8f\	.	8a-\	.	.	.	.	.
.	.	.	.	.	.	.	.	.	16cc\JJ	.	.	.	.	.	.	.	.	.	.	.	.	.	.	.	.	.	.	.	.	.	.	.	.
8F\	.	.	8F\	.	8c\	.	8a-/	.	16dd\LL	.	4F\	-ram	.	4c\	-ram	.	4a-\	-ram	.	4cc\	-ram	.	.	.	.	8f\	.	8a-\	.	.	.	.	.
.	.	.	.	.	.	.	.	.	16cc\	.	.	.	.	.	.	.	.	.	.	.	.	.	.	.	.	.	.	.	.	.	.	.	.
8F\J	.	.	8F\J	.	8c\J	.	8a-/J	.	16b\	.	.	.	.	.	.	.	.	.	.	.	.	.	.	.	.	8f\J	.	8a-\J	.	.	.	.	.
.	.	.	.	.	.	.	.	.	16cc\JJ	.	.	.	.	.	.	.	.	.	.	.	.	.	.	.	.	.	.	.	.	.	.	.	.
*Xtremolo	*	*	*Xtremolo	*	*Xtremolo	*	*Xtremolo	*	*	*	*	*	*	*	*	*	*	*	*	*	*	*	*	*	*	*Xtremolo	*	*Xtremolo	*	*	*	*	*
!	!	!	!	!	!	!	!	!	!	!	!	!	!	!	!	!	!	!	!	!	!	!	!	!	!	!	!	!	!	!LO:LB:g=original	!	!	!
=53	=53	=53	=53	=53	=53	=53	=53	=53	=53	=53	=53	=53	=53	=53	=53	=53	=53	=53	=53	=53	=53	=53	=53	=53	=53	=53	=53	=53	=53	=53	=53	=53	=53
8G\L	n6 4	.	8G\L	.	8g\L	.	8en/L	.	16een\LL	.	(4G\	Pa-	.	2c\	Pa-	.	(4en\	Pa-	.	2cc\	Pa-	.	2.ryy	2.ryy	2.ryy	4g\	.	4g\	.	2.cc\	.	4een\	.
.	.	.	.	.	.	.	.	.	16cc\	.	.	.	.	.	.	.	.	.	.	.	.	.	.	.	.	.	.	.	.	.	.	.	.
8G\	.	.	8G\	.	8g\	.	8e/	.	16bn\	.	.	.	.	.	.	.	.	.	.	.	.	.	.	.	.	.	.	.	.	.	.	.	.
.	.	.	.	.	.	.	.	.	16cc\JJ	.	.	.	.	.	.	.	.	.	.	.	.	.	.	.	.	.	.	.	.	.	.	.	.
8A-\	6	.	8A-\	.	8f\	.	8f/	.	16ff\LL	.	4A-\)	.	.	.	.	.	4f\)	.	.	.	.	.	.	.	.	4f\	.	4f\	.	.	.	4ff\	.
.	.	.	.	.	.	.	.	.	16cc\	.	.	.	.	.	.	.	.	.	.	.	.	.	.	.	.	.	.	.	.	.	.	.	.
8A-\	.	.	8A-\	.	8f\	.	8f/	.	16b\	.	.	.	.	.	.	.	.	.	.	.	.	.	.	.	.	.	.	.	.	.	.	.	.
.	.	.	.	.	.	.	.	.	16cc\JJ	.	.	.	.	.	.	.	.	.	.	.	.	.	.	.	.	.	.	.	.	.	.	.	.
8En\	6	.	8En\	.	8en\	.	8g/	.	16gg\LL	.	4En\	-tris	.	4c\	-triſ	.	4g\	-triſ	.	4cc\	-tris	.	.	.	.	4g\	.	4g\	.	.	.	4gg\	.
.	.	.	.	.	.	.	.	.	16cc\	.	.	.	.	.	.	.	.	.	.	.	.	.	.	.	.	.	.	.	.	.	.	.	.
8E\J	.	.	8E\J	.	8e\J	.	8g/J	.	16b\	.	.	.	.	.	.	.	.	.	.	.	.	.	.	.	.	.	.	.	.	.	.	.	.
.	.	.	.	.	.	.	.	.	16cc\JJ	.	.	.	.	.	.	.	.	.	.	.	.	.	.	.	.	.	.	.	.	.	.	.	.
!	!	!	!	!	!	!	!	!	!	!	!	!	!	!LO:LB:g=original	!	!	!	!	!	!	!	!	!	!	!	!	!	!	!	!	!	!	!
=54	=54	=54	=54	=54	=54	=54	=54	=54	=54	=54	=54	=54	=54	=54	=54	=54	=54	=54	=54	=54	=54	=54	=54	=54	=54	=54	=54	=54	=54	=54	=54	=54	=54
*tremolo	*	*	*tremolo	*	*tremolo	*	*tremolo	*	*	*	*	*	*	*	*	*	*	*	*	*	*	*	*	*	*	*	*	*	*	*	*	*	*
8F\L	.	.	8F\L	.	8f\L	.	8cc\L	.	16aa-\LL	.	2F\	mi-	.	2c\	mi-	.	2a-\	mi-	.	2cc\	mi-	.	2.ryy	2.ryy	2.ryy	4f\	.	4a-\	.	2.cc\	.	2.aa-\	.
.	.	.	.	.	.	.	.	.	16aa-\	.	.	.	.	.	.	.	.	.	.	.	.	.	.	.	.	.	.	.	.	.	.	.	.
8F\	.	.	8F\	.	8f\	.	8cc\	.	16gg\	.	.	.	.	.	.	.	.	.	.	.	.	.	.	.	.	.	.	.	.	.	.	.	.
.	.	.	.	.	.	.	.	.	16aa-\JJ	.	.	.	.	.	.	.	.	.	.	.	.	.	.	.	.	.	.	.	.	.	.	.	.
8F\	.	.	8F\	.	8f\	.	8cc\	.	16bb-\LL	.	.	.	.	.	.	.	.	.	.	.	.	.	.	.	.	4r	.	4r	.	.	.	.	.
.	.	.	.	.	.	.	.	.	16aa-\	.	.	.	.	.	.	.	.	.	.	.	.	.	.	.	.	.	.	.	.	.	.	.	.
8F\	.	.	8F\	.	8f\	.	8cc\	.	16gg\	.	.	.	.	.	.	.	.	.	.	.	.	.	.	.	.	.	.	.	.	.	.	.	.
.	.	.	.	.	.	.	.	.	16aa-\JJ	.	.	.	.	.	.	.	.	.	.	.	.	.	.	.	.	.	.	.	.	.	.	.	.
8F\	.	.	8F\	.	8f\	.	8cc\	.	16gg\LL	.	4F\	-se-	.	4c\	-se-	.	4a-\	-ſe-	.	4cc\	-se-	.	.	.	.	4r	.	4r	.	.	.	.	.
.	.	.	.	.	.	.	.	.	16aa-\	.	.	.	.	.	.	.	.	.	.	.	.	.	.	.	.	.	.	.	.	.	.	.	.
8F\J	.	.	8F\J	.	8f\J	.	8cc\J	.	16ccc\	.	.	.	.	.	.	.	.	.	.	.	.	.	.	.	.	.	.	.	.	.	.	.	.
.	.	.	.	.	.	.	.	.	16aa-\JJ	.	.	.	.	.	.	.	.	.	.	.	.	.	.	.	.	.	.	.	.	.	.	.	.
*Xtremolo	*	*	*Xtremolo	*	*Xtremolo	*	*Xtremolo	*	*	*	*	*	*	*	*	*	*	*	*	*	*	*	*	*	*	*	*	*	*	*	*	*	*
=55	=55	=55	=55	=55	=55	=55	=55	=55	=55	=55	=55	=55	=55	=55	=55	=55	=55	=55	=55	=55	=55	=55	=55	=55	=55	=55	=55	=55	=55	=55	=55	=55	=55
8E-X\L	6 3	.	8E-X\L	.	8e-X\L	.	8cc\L	.	16gg\LL	.	8E-X\	-re-	.	8c\	-re-	.	8g\L	-re-	.	8cc\L	-re-	.	2.ryy	2.ryy	2.ryy	8e-\L	.	8g\L	.	8cc\L	.	8gg\L	.
.	.	.	.	.	.	.	.	.	16ee-\	.	.	.	.	.	.	.	.	.	.	.	.	.	.	.	.	.	.	.	.	.	.	.	.
8F\	3	.	8F\J	.	8f\J	.	8cc\	.	16aa-\	.	8F\	-re	.	8c\	-re	.	8a-\J	-re	.	8cc\J	-re	.	.	.	.	8f\J	.	8a-\J	.	8cc\J	.	16aa-\L	.
.	.	.	.	.	.	.	.	.	16ff\JJ	.	.	.	.	.	.	.	.	.	.	.	.	.	.	.	.	.	.	.	.	.	.	16ff\JJ	.
!	!	!	!LO:TX:t=P:problem:mixed beam	!	!	!	!	!	!	!	!	!	!	!	!	!	!	!	!	!	!	!	!	!	!	!	!	!	!	!	!	!	!
8G\	4	.	8G\L	.	8g\L	.	8cc\	.	4ee-\	.	2G\	no-	.	(4e-\	no-	.	2g\	no-	.	(4cc\	no-	.	.	.	.	4g\	.	4g\	.	4cc\	.	4ee-\	.
8G\J	.	.	8G\	.	8g\	.	8cc\	.	.	.	.	.	.	.	.	.	.	.	.	.	.	.	.	.	.	.	.	.	.	.	.	.	.
!LO:LB:g=original	!	!	!	!	!	!	!	!	!	!	!	!	!	!	!	!	!	!	!	!	!	!	!	!	!	!	!	!	!	!	!	!	!
8GG/L	n	.	8GG/	.	8f\	.	8bn\	.	4ddt\	.	.	.	.	4d\)	.	.	.	.	.	4bn\)	.	.	.	.	.	4G/	.	4g\	.	4bn\	.	4dd\	.
8GG/J	.	.	8GG/J	.	8f\J	.	8b\J	.	.	.	.	.	.	.	.	.	.	.	.	.	.	.	.	.	.	.	.	.	.	.	.	.	.
*	*	*	*	*	*	*	*	*	*	*	*	*	*	*	*	*	*	*	*	*	*	*	*	*	*	*	*	*custos:ee	*	*	*	*	*
!	!	!	!	!	!	!	!	!	!	!	!	!	!	!	!	!	!	!	!	!LO:LB:g=original	!	!	!	!	!	!	!	!LO:PB:g=original	!	!	!	!LO:LB:g=original	!
=56	=56	=56	=56	=56	=56	=56	=56	=56	=56	=56	=56	=56	=56	=56	=56	=56	=56	=56	=56	=56	=56	=56	=56	=56	=56	=56	=56	=56	=56	=56	=56	=56	=56
!	!	!LO:DY:a:t=pp.	!	!	!	!	!LO:TX:t=P:problem:mixed beam	!	!	!	!	!	!	!	!	!	!	!	!	!	!	!	!	!	!	!	!	!	!	!	!	!	!
8C/	.	pp	8C/	.	8e-\L	.	8cc\L	.	4cc\	.	4C/	-bis	.	4c\	-bis	.	4g\	-bis	.	4cc\	-bis	.	2.ryy	2.ryy	2.ryy	4G/	.	4g\	.	4cc\	.	4cc\	.
!	!	!	!	!	!	!	!	!LO:DY:a:t=p.	!	!	!	!	!	!	!	!	!	!	!	!	!	!	!	!	!	!	!	!	!	!	!	!	!
8r	.	.	8r	.	8e-\J	.	8g/J	p	.	.	.	.	.	.	.	.	.	.	.	.	.	.	.	.	.	.	.	.	.	.	.	.	.
!	!	!	!LO:LB:g=original	!	!	!LO:DY:a:t=p&colon;	!	!	!	!	!	!	!	!	!	!	!	!	!	!	!	!	!	!	!	!	!	!	!	!	!	!	!
!	!	!	!	!LO:DY:a:t=pp.	!	!	!	!	!	!	!	!	!	!	!	!	!	!	!	!	!	!	!	!	!	!	!	!	!	!	!	!	!
8c\	.	.	8c\	pp	8r	p	8r	.	16r	.	4r	.	.	4r	.	.	4r	.	.	4r	.	.	.	.	.	4r	.	4r	.	4r	.	4r	.
!	!	!	!	!	!	!	!	!	!	!LO:DY:a:t=p&colon;	!	!	!	!	!	!	!	!	!	!	!	!	!	!	!	!	!	!	!	!	!	!	!
.	.	.	.	.	.	.	.	.	16ee-\LL	p	.	.	.	.	.	.	.	.	.	.	.	.	.	.	.	.	.	.	.	.	.	.	.
!	!	!	!	!	!LO:LB:g=original	!	!	!	!	!	!	!	!	!	!	!	!	!	!	!	!	!	!	!	!	!	!	!	!	!	!	!	!
8r	.	.	8r	.	8e-\	.	8g/	.	16ff\	.	.	.	.	.	.	.	.	.	.	.	.	.	.	.	.	.	.	.	.	.	.	.	.
.	.	.	.	.	.	.	.	.	16gg\JJ	.	.	.	.	.	.	.	.	.	.	.	.	.	.	.	.	.	.	.	.	.	.	.	.
8G|\	.	.	8G\	.	8r	.	8r	.	8.gg\L	.	4r	.	.	4r	.	.	4r	.	.	4r	.	.	.	.	.	4r	.	4r	.	4r	.	4r	.
8r	.	.	8r	.	8d\	.	8f/	.	.	.	.	.	.	.	.	.	.	.	.	.	.	.	.	.	.	.	.	.	.	.	.	.	.
.	.	.	.	.	.	.	.	.	16bn\Jk	.	.	.	.	.	.	.	.	.	.	.	.	.	.	.	.	.	.	.	.	.	.	.	.
!	!	!	!	!	!	!	!	!	!LO:LB:g=original	!	!	!	!	!	!	!	!	!	!	!	!	!	!	!	!	!	!	!	!	!	!	!	!
=57	=57	=57	=57	=57	=57	=57	=57	=57	=57	=57	=57	=57	=57	=57	=57	=57	=57	=57	=57	=57	=57	=57	=57	=57	=57	=57	=57	=57	=57	=57	=57	=57	=57
!	!	!	!	!	!	!	!	!	!	!	!LO:N:vis=0	!	!	!LO:N:vis=0	!	!	!LO:N:vis=0	!	!	!LO:N:vis=0	!	!	!	!	!	!LO:N:vis=00	!	!LO:N:vis=00	!	!LO:N:vis=0	!	!LO:N:vis=0	!
8A-\	.	.	8A-\	.	8r	.	8r	.	8cc\L	.	1.r	.	.	1.r	.	.	1.r	.	.	1.r	.	.	2.ryy	2.ryy	2.ryy	0.r	.	0.r	.	1.r	.	1.r	.
8r	.	.	8r	.	8c\	.	8e-/	.	8cc\J	.	.	.	.	.	.	.	.	.	.	.	.	.	.	.	.	.	.	.	.	.	.	.	.
8AA-/	.	.	8A-\	.	8r	.	8r	.	16r	.	.	.	.	.	.	.	.	.	.	.	.	.	.	.	.	.	.	.	.	.	.	.	.
.	.	.	.	.	.	.	.	.	16cc\LL	.	.	.	.	.	.	.	.	.	.	.	.	.	.	.	.	.	.	.	.	.	.	.	.
8r	.	.	8r	.	8c\	.	8c/	.	16dd\	.	.	.	.	.	.	.	.	.	.	.	.	.	.	.	.	.	.	.	.	.	.	.	.
.	.	.	.	.	.	.	.	.	16cc\JJ	.	.	.	.	.	.	.	.	.	.	.	.	.	.	.	.	.	.	.	.	.	.	.	.
8En\	6	.	8En\	.	8r	.	8r	.	8.cc\L	.	.	.	.	.	.	.	.	.	.	.	.	.	.	.	.	.	.	.	.	.	.	.	.
8r	.	.	8r	.	8G/	.	8c/	.	.	.	.	.	.	.	.	.	.	.	.	.	.	.	.	.	.	.	.	.	.	.	.	.	.
.	.	.	.	.	.	.	.	.	16g\Jk	.	.	.	.	.	.	.	.	.	.	.	.	.	.	.	.	.	.	.	.	.	.	.	.
=58	=58	=58	=58	=58	=58	=58	=58	=58	=58	=58	=58	=58	=58	=58	=58	=58	=58	=58	=58	=58	=58	=58	=58	=58	=58	=58	=58	=58	=58	=58	=58	=58	=58
8F\	.	.	8F\	.	8r	.	8r	.	8a-/L	.	.	.	.	.	.	.	.	.	.	.	.	.	2.ryy	2.ryy	2.ryy	.	.	.	.	.	.	.	.
8r	.	.	8r	.	8A-/	.	8c/	.	8a-/J	.	.	.	.	.	.	.	.	.	.	.	.	.	.	.	.	.	.	.	.	.	.	.	.
8F\	.	.	8F\	.	8r	.	8r	.	16r	.	.	.	.	.	.	.	.	.	.	.	.	.	.	.	.	.	.	.	.	.	.	.	.
.	.	.	.	.	.	.	.	.	16a-/LL	.	.	.	.	.	.	.	.	.	.	.	.	.	.	.	.	.	.	.	.	.	.	.	.
8r	.	.	8r	.	8A-/	.	8c/	.	16b-/	.	.	.	.	.	.	.	.	.	.	.	.	.	.	.	.	.	.	.	.	.	.	.	.
.	.	.	.	.	.	.	.	.	16a-/JJ	.	.	.	.	.	.	.	.	.	.	.	.	.	.	.	.	.	.	.	.	.	.	.	.
!	!	!	!	!	!	!	!LO:LB:g=original	!	!	!	!	!	!	!	!	!	!	!	!	!	!	!	!	!	!	!	!	!	!	!	!	!	!
8E-X\	.	.	8E-X\	.	8r	.	8r	.	16g/LL	.	.	.	.	.	.	.	.	.	.	.	.	.	.	.	.	.	.	.	.	.	.	.	.
.	.	.	.	.	.	.	.	.	16a-/	.	.	.	.	.	.	.	.	.	.	.	.	.	.	.	.	.	.	.	.	.	.	.	.
8r	.	.	8r	.	8G/	.	8c/	.	16bn/	.	.	.	.	.	.	.	.	.	.	.	.	.	.	.	.	.	.	.	.	.	.	.	.
.	.	.	.	.	.	.	.	.	16cc/JJ	.	.	.	.	.	.	.	.	.	.	.	.	.	.	.	.	.	.	.	.	.	.	.	.
=59	=59	=59	=59	=59	=59	=59	=59	=59	=59	=59	=59	=59	=59	=59	=59	=59	=59	=59	=59	=59	=59	=59	=59	=59	=59	=59	=59	=59	=59	=59	=59	=59	=59
*	*	*	*	*	*	*	*tremolo	*	*	*	*	*	*	*	*	*	*	*	*	*	*	*	*	*	*	*	*	*	*	*	*	*	*
.	.	.	.	.	.	.	.	.	8qb-X/	.	.	.	.	.	.	.	.	.	.	.	.	.	.	.	.	.	.	.	.	.	.	.	.
!LO:TX:t=P:problem:mixed beam	!	!	!LO:TX:t=P:problem:mixed beam	!	!	!	!	!	!	!	!	!	!	!	!	!	!	!	!	!	!	!	!	!	!	!	!	!	!	!	!	!	!
8F\L	.	.	8F\L	.	8A-/L	.	8c/L	.	8a-/L	.	2.r	.	.	2.r	.	.	2.r	.	.	2.r	.	.	2.ryy	2.ryy	2.ryy	.	.	.	.	2.r	.	2.r	.
8F\	.	.	8F\	.	8A-/J	.	8c/	.	16g/L	.	.	.	.	.	.	.	.	.	.	.	.	.	.	.	.	.	.	.	.	.	.	.	.
.	.	.	.	.	.	.	.	.	16f/JJ	.	.	.	.	.	.	.	.	.	.	.	.	.	.	.	.	.	.	.	.	.	.	.	.
*	*	*	*	*	*tremolo	*	*	*	*	*	*	*	*	*	*	*	*	*	*	*	*	*	*	*	*	*	*	*	*	*	*	*	*
8G\	.	.	8G\	.	8G/L	.	8c/	.	4e-/	.	.	.	.	.	.	.	.	.	.	.	.	.	.	.	.	.	.	.	.	.	.	.	.
8G\	.	.	8G\	.	8G/	.	8c/J	.	.	.	.	.	.	.	.	.	.	.	.	.	.	.	.	.	.	.	.	.	.	.	.	.	.
*	*	*	*	*	*	*	*Xtremolo	*	*	*	*	*	*	*	*	*	*	*	*	*	*	*	*	*	*	*	*	*	*	*	*	*	*
8GG/	.	.	8GG/	.	8G/	.	8Bn/L	.	4dt/	.	.	.	.	.	.	.	.	.	.	.	.	.	.	.	.	.	.	.	.	.	.	.	.
8GG/J	.	.	8GG/J	.	8G/J	.	8B/J	.	.	.	.	.	.	.	.	.	.	.	.	.	.	.	.	.	.	.	.	.	.	.	.	.	.
*	*	*	*	*	*Xtremolo	*	*	*	*	*	*	*	*	*	*	*	*	*	*	*	*	*	*	*	*	*	*	*	*	*	*	*	*
!	!	!	!	!	!	!	!	!	!	!	!	!	!	!	!	!	!	!	!	!	!	!	!	!	!	!	!	!	!	!	!	!LO:TX:t=P:problem:wykreślone 3 takty	!
=60	=60	=60	=60	=60	=60	=60	=60	=60	=60	=60	=60	=60	=60	=60	=60	=60	=60	=60	=60	=60	=60	=60	=60	=60	=60	=60	=60	=60	=60	=60	=60	=60	=60
4C/	.	.	4C/	.	4G/	.	4c/	.	4c/	.	4r	.	.	4r	.	.	4r	.	.	4r	.	.	2.ryy	2.ryy	2.ryy	.	.	.	.	4r	.	4r	.
!	!	!	!	!	!	!	!	!	!	!	!	!	!LO:DY:a:t=p.	!	!	!LO:DY:a:t=p.	!	!	!	!	!	!	!	!	!	!	!	!	!	!	!LO:DY:a:rj:t=pp.	!	!
4r	.	.	4r	.	4r	.	4r	.	4r	.	4C/	mi-	p	4c\	mi-	p	4en\	mi-	.	4g\	mi-	.	.	.	.	.	.	.	.	4een\	pp	4gg\	.
4r	.	.	4r	.	4r	.	4r	.	4r	.	4C/	-ſe-	.	4c\	-ſe-	.	4e\	-se-	.	4g\	-se-	.	.	.	.	.	.	.	.	4ee\	.	4gg\	.
!	!	!	!	!	!	!	!	!	!	!	!LO:LB:g=original	!	!	!	!	!	!	!	!	!	!	!	!	!	!	!	!	!	!	!	!	!	!
=61	=61	=61	=61	=61	=61	=61	=61	=61	=61	=61	=61	=61	=61	=61	=61	=61	=61	=61	=61	=61	=61	=61	=61	=61	=61	=61	=61	=61	=61	=61	=61	=61	=61
!	!	!	!	!	!	!	!	!	!LO:TX:a:t=63	!	!	!	!	!	!	!	!	!	!	!	!	!	!	!	!	!	!	!	!	!	!	!	!
!	!	!	!	!	!LO:N:vis=0	!	!LO:N:vis=0	!	!LO:N:vis=0	!	!	!	!	!	!	!	!	!	!	!	!	!	!	!	!	!LO:N:vis=0	!	!LO:N:vis=0	!	!	!	!	!
4CC|>/	.	.	4C/	.	1.r	.	1.r	.	1.r	.	2C/	-re-	.	2c\	-re-	.	2f\	-re-	.	2a-\	-re-	.	2.ryy	2.ryy	2.ryy	1.r	.	1.r	.	2ff\	.	2aa-\	.
4r	.	.	4r	.	.	.	.	.	.	.	.	.	.	.	.	.	.	.	.	.	.	.	.	.	.	.	.	.	.	.	.	.	.
!	!	!	!	!	!	!	!	!	!	!	!	!	!	!	!	!	!LO:SIC:v:s=4en\	!	!	!	!	!	!	!	!	!	!	!	!	!LO:SIC:v:s=4een\	!	!	!
4r	.	.	4r	.	.	.	.	.	.	.	4C/	-re	.	4c\	-re	.	4e-\	-re	.	4g\	-re	.	.	.	.	.	.	.	.	4ee-\	.	4gg\	.
=62	=62	=62	=62	=62	=62	=62	=62	=62	=62	=62	=62	=62	=62	=62	=62	=62	=62	=62	=62	=62	=62	=62	=62	=62	=62	=62	=62	=62	=62	=62	=62	=62	=62
4CC|>/	.	.	4C/	.	.	.	.	.	.	.	2.C/	no-	.	2.c\	no-	.	2.f\	no-	.	2.a-\	no-	.	2.ryy	2.ryy	2.ryy	.	.	.	.	2.ff\	.	2.aa-\	.
4r	.	.	4r	.	.	.	.	.	.	.	.	.	.	.	.	.	.	.	.	.	.	.	.	.	.	.	.	.	.	.	.	.	.
4r	.	.	4r	.	.	.	.	.	.	.	.	.	.	.	.	.	.	.	.	.	.	.	.	.	.	.	.	.	.	.	.	.	.
=63	=63	=63	=63	=63	=63	=63	=63	=63	=63	=63	=63	=63	=63	=63	=63	=63	=63	=63	=63	=63	=63	=63	=63	=63	=63	=63	=63	=63	=63	=63	=63	=63	=63
2CC;/	.	.	2C;/	.	2.r	.	2.r	.	2.r;	.	2C/	-bis	.	2c\	-bis	.	2en\	-bis	.	2g\	-bis	.	2.ryy	2.ryy	2.ryy	2.r	.	2.r	.	2een;\	.	2gg;\	.
!LO:TX:a:rj:t=63	!	!	!	!	!	!	!	!	!	!	!	!	!	!	!	!	!	!	!	!	!	!	!	!	!	!	!	!	!	!	!	!	!
4r	.	.	4r	.	.	.	.	.	.	.	4r	.	.	4r	.	.	4r	.	.	4r	.	.	.	.	.	.	.	.	.	4r	.	4r	.
!	!	!	!	!	!	!	!LO:TX:b:rj:t=Sequitur Quoniam	!	!	!	!LO:TX:b:rj:t=Quoniam Tacet	!	!	!LO:TX:b:rj:t=Quoniam\nTacet	!	!	!LO:TX:b:rj:t=ſeque	!	!	!	!	!	!	!	!	!	!	!	!	!	!	!	!
==	==	==	==	==	==	==	==	==	==	==	==	==	==	==	==	==	==	==	==	==	==	==	==	==	==	==	==	==	==	==	==	==	==
*-	*-	*-	*-	*-	*-	*-	*-	*-	*-	*-	*-	*-	*-	*-	*-	*-	*-	*-	*-	*-	*-	*-	*-	*-	*-	*-	*-	*-	*-	*-	*-	*-	*-
!!!system-decoration: [(g1)][(g2)][(g3)][(g4)][(g5)]g6
!!!RDF**kern: i = editorial accidental
!!!RDF**kern: > = above
!!!RDF**kern: < = below
!!!RDF**kern: N = linked
!!!RDF**dynam: > = "dim.", fontstyle= "italic"
!!!RDF**kern: | = vertical stroke
!!!ENC: Anastazja Marusiak
!!!EED: Katarzyna Serwa
!!!END: 2023-11-28
!!!EEV: 2024-04-25
